!!!!SEGMENT: pl-sa--77-a-ii-17--001_kotowicz--passio-ex-c-moll-passio-domini-nostri.krn
!!!cenid: 17xx:341
!!!COM: Kotowicz
!!!COM-rismid: pe41024678
!!!CDT:
!!!CNT:
!!!OPR: Passio ex c-moll
!!!OTL: Passio Domini nostri
!!!OMV: 001
!!!PDT: 1767
!!!AGN: Sacred; Passions
!!!SMS-siglum: PL-SA
!!!SMS-shelfmark: 77/A II 17
!!!SMS-shelfwork: 001-001 M
!!!NIFC-rismid: 1001077252
!!!URL-scan: http://bc.bdsandomierz.pl/dlibra/publication/1354/edition/1322/content
!!!ONB-nifc: UWAGA: części Paſsio: Paſsio Domini nostri, Płaczcie angeli, Aprehendit ergo Pilatus, Coś uczyniło źródło niewinności, Orabat autem Jesus, Qui paſsus est
!!!AIN: 2 cor 1 empty 1 oboe 1 organ 2 violn 1 vox
!!!key:
**kern	**fba	**kern	**dynam	**kern	**dynam	**kern	**text	**kern	**text	**text	**dynam	**kern	**kern	**kern	**dynam
*part8	*part8	*part7	*part7	*part6	*part6	*part5	*part5	*part4	*part4	*part4	*part4	*part3	*part2	*part1	*part1
*staff8	*staff8	*staff7	*	*staff6	*	*staff5	*staff5	*staff4	*staff4	*staff4	*	*staff3	*staff2	*staff1	*
*Iorgan	*	*Ivioln	*	*Ivioln	*	*Iempty	*	*Ivox	*	*	*	*Icor	*Icor	*Ioboe	*
*I"Organo	*	*I"Violino Secundo	*	*I"Violino primo	*	*I"Baſso	*	*I"Canto	*	*	*	*I"Corno Secundo Ex Dis	*I"Corno Primo Ex Dis	*I"Oboe Primo	*
*I'Org.	*	*I'V-no II	*	*I'V-no I	*	*I'B.	*	*I'C.	*	*	*	*I'C. II	*I'C. I	*I'Ob. I	*
*clefF4	*	*clefG2	*	*clefG2	*	*clefF4	*	*clefC1	*	*	*	*clefG2	*clefG2	*clefG2	*
*	*	*	*	*	*	*	*	*	*	*	*	*ITrd5c9	*ITrd5c9	*	*
*k[b-e-a-]	*	*k[b-e-a-]	*	*k[b-e-a-]	*	*k[b-e-a-]	*	*k[a-b-e-]	*	*	*	*k[b-e-a-]	*k[b-e-a-]	*k[b-a-e-]	*
*c:	*	*c:	*	*c:	*	*c:	*	*c:	*	*	*	*c:	*c:	*c:	*
*M4/4	*	*M4/4	*	*M4/4	*	*M4/4	*	*M4/4	*	*	*	*M4/4	*M4/4	*M4/4	*
*	*	*	*	*	*below	*	*	*	*	*	*	*	*	*	*
=1	=1	=1	=1	=1	=1	=1	=1	=1	=1	=1	=1	=1	=1	=1	=1
!	!	!	!	!	!	!	!	!	!	!	!	!LO:TX:a:t=7	!LO:TX:rj:b:t=Paſsio	!	!
!LO:TX:rj:b:t=Paſsio Domini nostri JESU Christi	!	!	!	!	!	!LO:TX:a:t=7.	!	!	!	!	!	!LO:TX:a:t=Andante	!	!LO:SIC:o:s=:v:all\right;global	!
!LO:TX:rj:a:t=Pars Prima	!	!LO:TX:a:t=Lentiſsima	!	!LO:TX:a:t=Lentiſsima	!	!LO:TX:a:t=Lentiſsima	!	!LO:TX:a:t=7	!	!	!	!LO:TX:rj:b:t=Paſsio Domini nostri Jesu Xti	!LO:TX:a:t=7	!LO:TX:a:t=Pars 1ma	!
8C/L	.	8cc\L	.	(16cc\LL	.	00r	.	00r	.	.	.	00r	00r	16cc\LL	.
.	.	.	.	16bn\J)	.	.	.	.	.	.	.	.	.	16bn\J	.
8C/	.	16bn\L	.	8cc\J|	.	.	.	.	.	.	.	.	.	8cc\J	.
.	.	16cc\JJ	.	.	.	.	.	.	.	.	.	.	.	.	.
8C/	.	16g/LL	.	16g/LL	.	.	.	.	.	.	.	.	.	16gg\LL	.
.	.	16f/	.	16f/	.	.	.	.	.	.	.	.	.	16ff\	.
8C/J	.	16e-/	.	16e-/	.	.	.	.	.	.	.	.	.	16ee-\	.
.	.	16d/JJ	.	16d/JJ	.	.	.	.	.	.	.	.	.	16dd\JJ	.
!	!	!LO:TX:a:t=P:problem=mixed beam	!	!LO:TX:a:t=P:problem=mixed beam	!	!	!	!	!	!	!	!	!	!	!
4C/	.	8c/L	.	8c/L	.	.	.	.	.	.	.	.	.	8cc\L	.
.	.	16cc\L	.	16ee-\L	.	.	.	.	.	.	.	.	.	16ee-\L	.
.	.	16b\JJ	.	16dd\JJ	.	.	.	.	.	.	.	.	.	16dd\JJ	.
8r	.	8cc\L	.	8ee-\L	.	.	.	.	.	.	.	.	.	8ee-\L	.
8C/	.	8a-\J	.	16dd\L	.	.	.	.	.	.	.	.	.	16dd\L	.
.	.	.	.	16cc\JJ	.	.	.	.	.	.	.	.	.	16cc\JJ	.
=2	=2	=2	=2	=2	=2	=2	=2	=2	=2	=2	=2	=2	=2	=2	=2
8G\L	.	16bn\LL	.	8dd\L	.	.	.	.	.	.	.	.	.	8dd\L	.
.	.	16a-/J	.	.	.	.	.	.	.	.	.	.	.	.	.
8G\	.	8.b\J	.	16cc\L	.	.	.	.	.	.	.	.	.	16cc\L	.
.	.	.	.	16dd\JJ	.	.	.	.	.	.	.	.	.	16dd\JJ	.
!	!	!	!	!LO:TX:a:t=P:problem=mixed beam	!	!	!	!	!	!	!	!	!	!LO:TX:a:t=P:problem=mixed beam	!
8G\	.	.	.	16G/LL	.	.	.	.	.	.	.	.	.	16g/LL	.
.	.	16dd\LL	.	16ff\	.	.	.	.	.	.	.	.	.	16ff\	.
8G\J	.	16cc\	.	16ee-\	.	.	.	.	.	.	.	.	.	16ee-\	.
.	.	16b\JJ	.	16dd\JJ	.	.	.	.	.	.	.	.	.	16dd\JJ	.
!LO:TX:a:t=P:problem=mixed beam	!	!LO:TX:a:t=P:problem=mixed beam	!	!	!	!	!	!	!	!	!	!	!	!	!
8c\L	.	8cc\L	.	16ee-\LL	.	.	.	.	.	.	.	.	.	16ee-\LL	.
.	.	.	.	16dd\J	.	.	.	.	.	.	.	.	.	16dd\J	.
16C/L	.	8e-/J	.	8cc\J	.	.	.	.	.	.	.	.	.	8cc\J	.
16D/JJ	6\	.	.	.	.	.	.	.	.	.	.	.	.	.	.
8E-/L	6\	8r	.	8r	.	.	.	.	.	.	.	.	.	8r	.
8C/J	.	8ee-\	.	8gg\	.	.	.	.	.	.	.	.	.	8gg\	.
!	!	!LO:LB:g=original	!	!LO:LB:g=original	!	!	!	!	!	!	!	!	!	!	!
=3	=3	=3	=3	=3	=3	=3	=3	=3	=3	=3	=3	=3	=3	=3	=3
8B-X\L	.	8dd\L	.	(8ff\L	.	.	.	.	.	.	.	.	.	(8ff\L	.
8B-\	.	(16b-X\'L	.	16b-\'L	.	.	.	.	.	.	.	.	.	16b-\'L	.
.	.	16a-/'JJ	.	16cc\'JJ	.	.	.	.	.	.	.	.	.	16cc\'JJ	.
8B-\	.	16b-X\'LL	.	16dd\'LL	.	.	.	.	.	.	.	.	.	16dd\'LL	.
.	.	16cc\'	.	16ee-\'	.	.	.	.	.	.	.	.	.	16ee-\'	.
8B-\J	.	16dd\'	.	16ff\'	.	.	.	.	.	.	.	.	.	16ff\'	.
.	.	16ee-\'JJ)	.	16gg\'JJ)	.	.	.	.	.	.	.	.	.	16gg\'JJ)	.
4B-\	.	8dd\L|	.	8ff\L	.	.	.	.	.	.	.	.	.	8ff\L	.
.	.	(16ff\L	.	16aa-\L	.	.	.	.	.	.	.	.	.	16aa-\L	.
.	.	16ee-\JJ)	.	16gg\JJ	.	.	.	.	.	.	.	.	.	16gg\JJ	.
!	!	!	!	!	!	!	!	!	!	!	!	!	!LO:LB:g=original	!	!
8r	.	8ff\L|	.	8aa-\L	.	.	.	.	.	.	.	.	.	8aa-\L	.
8B-\	6	(16ee-\L	.	16gg\L	.	.	.	.	.	.	.	.	.	16gg\L	.
.	5	16dd\JJ)	.	16ff\JJ	.	.	.	.	.	.	.	.	.	16ff\JJ	.
!LO:LB:g=original	!	!	!	!	!	!	!	!	!	!	!	!	!	!	!
=4	=4	=4	=4	=4	=4	=4	=4	=4	=4	=4	=4	=4	=4	=4	=4
4E-\	.	16ee-\LL	.	16gg\LL	.	.	.	.	.	.	.	.	.	16gg\LL	.
.	.	16ff\JJ	.	16aa-\JJ	.	.	.	.	.	.	.	.	.	16aa-\JJ	.
.	.	4gg\	.	4bb-\	.	.	.	.	.	.	.	.	.	4bb-\	.
8r	.	.	.	.	.	.	.	.	.	.	.	.	.	.	.
8E-\	.	16ff\LL	.	16aa-\LL	.	.	.	.	.	.	.	.	.	16aa-\LL	.
.	.	16ee-\JJ	.	16gg\JJ	.	.	.	.	.	.	.	.	.	16gg\JJ	.
!LO:TX:a:t=P:problem=mixed beam	!	!	!	!	!	!	!	!	!	!	!	!	!	!	!
8A-\L	.	16dd\LL	.	16ff\LL	.	.	.	.	.	.	.	.	.	16ff\LL	.
.	.	16ee-\	.	16gg\	.	.	.	.	.	.	.	.	.	16gg\	.
8A-\	.	16cc\	.	16ee-\	.	.	.	.	.	.	.	.	.	16ee-\	.
.	.	16dd\JJ	.	16ff\JJ	.	.	.	.	.	.	.	.	.	16ff\JJ	.
!	!	!LO:TX:a:t=P:problem=mixed beam	!	!	!	!	!	!	!	!	!	!	!	!	!
8B-\	.	16ee-\LL	.	16gg\LL	.	.	.	.	.	.	.	.	.	16gg\LL	.
.	.	16g/	.	16ee-\	.	.	.	.	.	.	.	.	.	16ee-\	.
8BB-/J	.	16a-X/	.	16ff\	.	.	.	.	.	.	.	.	.	16ff\	.
.	.	16g/JJ	.	16dd\JJ	.	.	.	.	.	.	.	.	.	16dd\JJ	.
=5	=5	=5	=5	=5	=5	=5	=5	=5	=5	=5	=5	=5	=5	=5	=5
8E-\L	.	8g/	.	8ee-\	.	0r	.	0r	.	.	.	0r	0r	8ee-\	.
8C/	.	4ee-\	.	4gg\	.	.	.	.	.	.	.	.	.	4gg\	.
8C/	.	.	.	.	.	.	.	.	.	.	.	.	.	.	.
8C/J	.	(16dd\LL	.	16ff\LL	.	.	.	.	.	.	.	.	.	16ff\LL	.
.	.	16cc\JJ)	.	16ee-\JJ	.	.	.	.	.	.	.	.	.	16ee-\JJ	.
!	!	!LO:LB:g=original	!	!	!	!	!	!	!	!	!	!	!	!	!
!	!	!LO:TX:a:t=P:problem=mixed beam	!	!LO:TX:a:t=P:problem=mixed beam	!	!	!	!	!	!	!	!	!	!LO:TX:a:t=P:problem=mixed beam	!
4GG/	.	(16bn\LL	.	16dd\LL	.	.	.	.	.	.	.	.	.	16dd\LL	.
.	.	16G/J)	.	16G/JJ	.	.	.	.	.	.	.	.	.	16a-/JJ	.
.	.	8dd\J|	.	4ff\	.	.	.	.	.	.	.	.	.	4ff\	.
4r	.	8cc\L	.	.	.	.	.	.	.	.	.	.	.	.	.
.	.	8b\J	.	16ee-\LL	.	.	.	.	.	.	.	.	.	16ee-\LL	.
.	.	.	.	16dd\JJ	.	.	.	.	.	.	.	.	.	16dd\JJ	.
!	!	!	!	!LO:LB:g=original	!	!	!	!	!	!	!	!	!	!	!
=6	=6	=6	=6	=6	=6	=6	=6	=6	=6	=6	=6	=6	=6	=6	=6
4C/	.	8cc\	.	8ee-\	.	.	.	.	.	.	.	.	.	8ee-\	.
.	.	4g/	.	4ee-\	.	.	.	.	.	.	.	.	.	4ee-\	.
8r	.	.	.	.	.	.	.	.	.	.	.	.	.	.	.
8C/	7	16f/LL	.	16dd\LL	.	.	.	.	.	.	.	.	.	16dd\LL	.
.	5	16e-/JJ	.	16cc\JJ	.	.	.	.	.	.	.	.	.	16cc\JJ	.
4GG/	n	8d/L	.	16bn\LL	.	.	.	.	.	.	.	.	.	16bn\LL	.
.	.	.	.	16g/J	.	.	.	.	.	.	.	.	.	16g/J	.
.	.	8f/	.	8dd\J	.	.	.	.	.	.	.	.	.	8ee-\J	.
4r	.	8e-/	.	8cc\L	.	.	.	.	.	.	.	.	.	8cc\L	.
.	.	8d/J	.	8bn\J	.	.	.	.	.	.	.	.	.	8bn\J	.
=7	=7	=7	=7	=7	=7	=7	=7	=7	=7	=7	=7	=7	=7	=7	=7
8C/L	.	16e-/LL	.	16cc\LL	.	1r	.	1r	.	.	.	1r	1r	16cc\LL	.
.	.	16d/J	.	16bn\J	.	.	.	.	.	.	.	.	.	16bn\J	.
8C/	.	8e-/J	.	8cc\J	.	.	.	.	.	.	.	.	.	8cc\J	.
8C/	.	16e-/LL	.	16g/LL	.	.	.	.	.	.	.	.	.	16gg\LL	.
.	.	16d/	.	16f/	.	.	.	.	.	.	.	.	.	16ff\	.
8C/J	.	16c/	.	16e-/	.	.	.	.	.	.	.	.	.	16ee-\	.
.	.	16Bn/JJ	.	16d/JJ	.	.	.	.	.	.	.	.	.	16dd\JJ	.
!LO:TX:a:t=P:problem=mixed beam	!	!	!	!	!	!	!	!	!	!	!	!LO:LB:g=original	!	!LO:TX:a:t=P:problem=mixed beam	!
8C/L	.	8c/L	.	8c/L	.	.	.	.	.	.	.	.	.	8cc\L	.
8A-\	6\	8a-/	.	8a-/	.	.	.	.	.	.	.	.	.	8aa-\	.
8G\	.	8g/	.	8g/	.	.	.	.	.	.	.	.	.	8gg\	.
8GG/J	n	8G/J	.	8G/J	.	.	.	.	.	.	.	.	.	8g/J	.
=8	=8	=8	=8	=8	=8	=8	=8	=8	=8	=8	=8	=8	=8	=8	=8
!	!	!LO:TX:a:t=P:problem=mixed beam	!	!LO:TX:a:t=P:problem=mixed beam	!	!	!	!	!	!	!	!	!	!	!
!	!	!LO:TX:a:t=Tutti	!	!LO:TX:a:t=Tutti	!	!	!	!LO:SIC:o:s=:v:all\right;global	!	!	!	!	!	!LO:TX:a:t=Tutti	!
8C/L	.	8c/L	.	8c/L	.	4.C/	Pa-	4.ee-\	Pa-	.	.	4G/	4G/	8cc\L	.
8C/	.	8cc\J	.	8cc\J	.	.	.	.	.	.	.	.	.	8ccc\J	.
8C/	.	16e-/LL	.	16g/LL	.	.	.	.	.	.	.	8r	8r	16gg\LL	.
.	.	16d/	.	16f/	.	.	.	.	.	.	.	.	.	16ff\	.
8C/J	.	16c/	.	16e-/	.	8C/	-ſsi-	8ee-\	-ſsi-	.	.	16G/LL	16G/LL	16ee-\	.
.	.	16B-/JJ	.	16d/JJ	.	.	.	.	.	.	.	16G/JJ	16G/JJ	16dd\JJ	.
!LO:LB:g=original	!	!LO:TX:a:t=P:problem=mixed beam	!	!	!	!	!	!	!	!	!	!	!	!	!
!	!	!LO:SIC:o:s:=:v:Prawdopodobnie nieumiejętne przeniesienie taktu do następnej pięciolinii	!	!LO:TX:a:t=P:problem=mixed beam	!	!	!	!	!	!	!	!	!	!	!
4C/	.	8c/L	.	8c/L	.	4C/	-o	4ee-\	-o	.	.	4G/	4G/	8cc\L	.
.	.	(16cc\L	.	16ee-\L	.	.	.	.	.	.	.	.	.	16ee-\L	.
.	.	16bn\JJ)	.	16dd\JJ	.	.	.	.	.	.	.	.	.	16dd\JJ	.
.	.	8qqdd/	.	.	.	.	.	.	.	.	.	.	.	.	.
8r	.	8cc\L	.	8ee-\L	.	8r	.	8r	.	.	.	4r	4r	8ee-\L	.
8C/	.	16b\L	.	16dd\L	.	8C/	Do-	8ee-\	Do-	.	.	.	.	16dd\L	.
.	.	16a-/JJ	.	16cc\JJ	.	.	.	.	.	.	.	.	.	16cc\JJ	.
=9	=9	=9	=9	=9	=9	=9	=9	=9	=9	=9	=9	=9	=9	=9	=9
8G\L	x n	8bn\L	.	16dd\LL	.	8GG/	-mi-	8dd\	-mi-	.	.	4G/	4G/	8dd\L	.
.	.	.	.	16cc\J	.	.	.	.	.	.	.	.	.	.	.
8G\	x 7	16an/L	.	8dd\J	.	8G\	-ni	8dd\	-ni	.	.	.	.	16cc\L	.
!	!	!LO:N:vis=16.	!	!	!	!	!	!	!	!	!	!	!	!	!
.	.	8b\JJ	.	.	.	.	.	.	.	.	.	.	.	16dd\JJ	.
!	!	!	!	!LO:TX:a:t=P:problem=mixed beam	!	!	!	!	!	!	!	!	!	!LO:TX:a:t=P:problem=mixed beam	!
8G\	6 5	.	.	16G/LL	.	16G\	no-	16ff\	no-	.	.	8r	8r	16g/LL	.
!	!	!LO:SI:o:=:v:=nie przewidziano wartości jednej 32	!	!	!	!	!	!	!	!	!	!	!	!	!
!	!	!	!	!	!	!	!	!LO:TX:a:t=f	!	!	!	!	!	!	!
.	.	16dd\LL|	.	16ff\	.	16G\	-stri	16ee-\	-stri	.	.	.	.	16ff\	.
!	!	!	!	!	!	!	!	!LO:TX:a:t=e	!	!	!	!	!	!	!
8G\J	.	16cc\|	.	16ee-\	.	16An\	Je-	16dd\	Je-	.	.	16G/LL	16G/LL	16ee-\	.
.	.	16b\JJ|	.	16dd\JJ	.	16Bn\	-su	16dd\	-su	.	.	16G/JJ	16G/JJ	16dd\JJ	.
!LO:TX:a:t=P:problem=mixed beam	!	!LO:TX:a:t=P:problem=mixed beam	!	!	!	!	!	!	!	!	!	!	!	!	!
.	.	.	.	16qqff/	.	.	.	.	.	.	.	.	.	8qqff/	.
8c\L	.	8cc\L	.	16ee-\LL	.	8c\	Chri-	8ee-\	Chri-	.	.	8G/L	8G/L	16ee-\LL	.
.	.	.	.	16dd\J	.	.	.	.	.	.	.	.	.	16dd\J	.
16C/L	.	8e-/J	.	8cc\J	.	8C/	-sti	8cc\	-sti	.	.	16G/L	16G/L	8cc\J	.
16D/JJ	6\	.	.	.	.	.	.	.	.	.	.	16G/JJ	16G/JJ	.	.
!	!	!	!	!	!	!	!	!LO:LB:g:=original	!	!	!	!	!	!	!
8E-/L	6	8r	.	8r	.	8r	.	8r	.	.	.	8G/L	8G/L	8r	.
8C/J	.	8ee-\	.	8gg\	.	8C/	se-	8ee-\	se-	.	.	8G/J	8G/J	8gg\	.
!	!	!	!	!	!	!LO:LB:g=original	!	!	!	!	!	!	!	!	!
=10	=10	=10	=10	=10	=10	=10	=10	=10	=10	=10	=10	=10	=10	=10	=10
8B-\L	.	8dd\L	.	16ff\LL	.	4B-\	-cun-	4dd\	-cun-	.	.	4B-/	4f\	(16ff\LL	.
.	.	.	.	(16b-X\'J	.	.	.	.	.	.	.	.	.	16b-X\'J	.
8B-\	.	(16b-X\'L	.	8cc\'J	.	.	.	.	.	.	.	.	.	8cc\'J	.
.	.	16an/'JJ	.	.	.	.	.	.	.	.	.	.	.	.	.
8B-\	5	16b-X\'LL	.	16dd\'LL	.	8B-\	-dum	8dd\	-dum	.	.	8r	8r	16dd\'LL	.
.	.	16cc\'	.	16ee-\'	.	.	.	.	.	.	.	.	.	16ee-\'	.
8B-\J	6	16dd\'	.	16ff\')	.	8B-\	.	8dd\	Ma-	.	.	8e-\	8g\	16ff\'	.
.	.	16ee-\'JJ)	.	16gg\'JJ	.	.	.	.	.	.	.	.	.	16gg\'JJ)	.
4B-\	7	8dd\L|	.	16ff\LL	.	8B-\	Ma-	8dd\	-the-	.	.	8B-\L	8f\L	16ff\LL	.
.	.	.	.	16aa-\J	.	.	.	.	.	.	.	.	.	16aa-\J	.
!	!	!	!	!	!	!	!	!LO:SIC:o:s:t:=:v:tekst, uwaga ogólna- końcówka ""m" oznaczana specjalnymznakiem	!	!	!	!	!	!	!
.	.	(16ff\L	.	8gg\J	.	8B-\	-teum	8dd\	-um	.	.	(16f\L	16a-\L	8gg\J	.
.	.	16ee-\JJ)	.	.	.	.	.	.	.	.	.	16e-\JJ)	16g\JJ	.	.
8r	.	8ff\L	.	8aa-\L	.	8r	.	8r	.	.	.	8f\L	8a-\L	8aa-\L	.
8B-\	6	16ee-\L	.	16gg\L	.	8B-\	Se-	8dd\	se-	.	.	(16e-\L	16g\L	16gg\L	.
.	5	16dd\JJ	.	16ff\JJ	.	.	.	.	.	.	.	16B-\JJ)	16f\JJ	16ff\JJ	.
!	!	!	!	!	!	!	!	!	!	!	!	!	!LO:LB:g=original	!LO:LB:g=original	!
=11	=11	=11	=11	=11	=11	=11	=11	=11	=11	=11	=11	=11	=11	=11	=11
8E-/L	.	8ee-\L	.	8gg\L	.	8G\	-cun-	4ee-\	-cun-	.	.	4e-\	4g\	(8gg\L	.
8E-/	.	(16b-\'L	.	(16b-\'L	.	4G\	-dum	.	.	.	.	.	.	16b-\'L	.
.	.	16g/'JJ	.	16dd\'JJ	.	.	.	.	.	.	.	.	.	16dd\'JJ	.
8E-/	6 7	16b-\'LL	.	16ee-\'LL	.	.	.	8ee-\L	-dum	.	.	8r	8r	16ee-\'LL	.
.	.	16ee-\'	.	16ff\'	.	.	.	.	.	.	.	.	.	16ff\'	.
8BB-/J	.	16ee-\'	.	16gg\')	.	8B-\	.	8dd\J	Ma-	.	.	8f\	8a-\	16gg\'	.
.	.	16ff\'JJ)	.	16aa-\'JJ	.	.	.	.	.	.	.	.	.	16aa-\'JJ)	.
!	!	!LO:LB:g=original	!	!	!	!	!	!	!	!	!	!LO:LB:g=original	!	!	!
!	!	!	!	!	!	!	!	!LO:SIC:s:=:v:the	!	!	!	!	!	!	!
4E-\	.	16ee-\LL	.	16aa-\LL	.	8G\	Mate-	8ee-\	-tche-	.	.	16e-\LL	16g\LL	16aa-\LL	.
.	.	16ff\JJ	.	16aa-\JJ	.	.	.	.	.	.	.	16f\JJ	16a-\JJ	16aa-\JJ	.
.	.	4gg\	.	4bb-\	.	8E-\	-um	8b-\	-um	.	.	(4g\	4b-\	4bb-\	.
8r	.	.	.	.	.	4r	.	4r	.	.	.	.	.	.	.
.	x 9	.	.	.	.	.	.	.	.	.	.	.	.	.	.
8E-\	- 8	16ff\LL	.	16aa-\LL	.	.	.	.	.	.	.	16f\LL)	(16a-\LL	16aa-\LL	.
.	.	16ee-\JJ	.	16gg\JJ	.	.	.	.	.	.	.	16e-\JJ	16g\JJ)	16gg\JJ	.
=12	=12	=12	=12	=12	=12	=12	=12	=12	=12	=12	=12	=12	=12	=12	=12
4BB-/	x 7	16dd\LL	.	16ff\LL	.	(16F\LL	In	16dd\LL	IN	.	.	16B-\LL	16f\LL	16ff\LL	.
.	6 5	16ee-\JJ	.	16gg\JJ	.	16G\J)	.	16ee-\J	.	.	.	(16e-\JJ	16g\JJ	16gg\JJ	.
.	.	4ff\	.	4aa-\	.	8A-\J|	.	8ff\J	.	.	.	4f\	4a-\	4aa-\	.
8r	.	.	.	.	.	8A-\	il-	8ff\	il-	.	.	.	.	.	.
8BB-/	.	16ee-\LL	.	16gg\LL	.	8F\	-lo	8dd\	-lo	.	.	16e-\LL)	(16g\LL	16gg\LL	.
.	.	16dd\JJ	.	16ff\JJ	.	.	.	.	.	.	.	16B-\JJ	16f\JJ)	16ff\JJ	.
!LO:LB:g=original	!	!	!	!	!	!LO:LB:g=original	!	!	!	!	!	!	!	!	!
!	!	!LO:TX:a:t=P:problem=mixed beam	!	!	!	!	!	!	!	!	!	!	!	!	!
8E-\L	.	8ee-\L	.	8gg\L	.	16G\	tem-	16ee-\	tem-	.	.	4e-\	4g\	8gg\L	.
.	.	.	.	.	.	16F\	-po-	16dd\	-po-	.	.	.	.	.	.
!	!	!	!	!	!	!	!	!LO:LB:g=original	!	!	!	!	!	!	!
8E-\	.	8b-\	.	8ee-\	.	8G\	-re	8ee-\	-re	.	.	.	.	8ee-\	.
8E-\	5 3	8g/	.	8b-\	.	8G\	di-	8b-\	di-	.	.	4r	4r	8b-\	.
8E-\J	6 4	8an/J	.	8ee-\J	.	8A-\	-xit	8cc\	-xit	.	.	.	.	8ee-\J	.
=13	=13	=13	=13	=13	=13	=13	=13	=13	=13	=13	=13	=13	=13	=13	=13
!	!	!	!	!	!	!	!	!	!	!	!	!	!	!LO:SIC:s:=:v:dd-	!
4E-\	-	4b-\T	.	4dd-X\	.	4B-\	Je-	4dd-X\	Je-	.	.	8E-/L	8e-\L	4dd\	.
.	7 5	.	.	.	.	.	.	.	.	.	.	16E-/L	16e-\L	.	.
.	.	.	.	.	.	.	.	.	.	.	.	16E-/JJ	16e-\JJ	.	.
4r	.	(16b-\LL	.	16dd-\LL	.	(16B-\LL	-sus	(16dd-\LL	-sus	.	.	8E-/L	8e-\L	16dd\LL	.
.	.	16a-X\	.	16cc\	.	16A-\JJ)	.	16cc\JJ)	.	.	.	.	.	16cc\	.
.	.	16g\	.	16b-\	.	(16G\LL	di-	16b-\LL	di-	.	.	8E-/J	8e-\J	16b-\	.
.	.	16b-\JJ)	.	16cc\JJ	.	16A-\JJ)	.	16cc\JJ	.	.	.	.	.	16dd\JJ	.
4r	.	16b-\LL	.	16dd-\LL	.	8B-\	-sci-	8dd-\	-sci-	.	.	4E-/	4e-\	16dd\LL	.
.	.	16g/	.	16b-\	.	.	.	.	.	.	.	.	.	16b-\	.
.	.	16a-/	.	16cc\	.	16A-\	-pu-	16cc\	-pu-	.	.	.	.	16cc\	.
.	.	16b-\JJ	.	16dd-\JJ	.	16G\	-lis	16b-\	-lis	.	.	.	.	16dd\JJ	.
8E-\L	6 4	8a-/L	.	8cc\L	.	8A-\	su-	8cc\	Su-	.	.	4r	4r	8cc\L	.
8E-\J	5 3	8g/J	.	8b-\J	.	8G\	-is	8a-\	-is	.	.	.	.	8b-\J	.
=14	=14	=14	=14	=14	=14	=14	=14	=14	=14	=14	=14	=14	=14	=14	=14
8F\L	6_	4.a-/T	.	4.ff\T	.	4.A-\	sci-	(4.ff\	sci-	.	.	2r	2r	4ff\T	.
8F\	.	.	.	.	.	.	.	.	.	.	.	.	.	.	.
8F\	.	.	.	.	.	.	.	.	.	.	.	.	.	8ee-\	.
8F\J	5	8g/	.	8ee-\	.	8G\	-tis	8ee-\)	.	.	.	.	.	8r	.
4G\	n	8f/L	.	8ddn\L	.	8F\	.	8ddn\	-tis	.	.	8G/L	8G/L	8dd\L	.
.	.	8g/	.	8bn\	.	8G\	quia	8bn\	quia	.	.	8G/	8G/	8b-\	.
!	!	!	!	!	!	!LO:LB:g=original	!	!	!	!	!	!	!	!	!
8r	.	8an/	.	8cc\	.	8An\	post	8cc\	.	.	.	8G/J	8G/J	8cc\	.
8G\	.	8bn\J	.	8dd\J	.	8B-\	.	8dd\	post	.	.	8r	8r	8dd\J	.
!	!	!LO:LB:g=original	!	!	!	!	!	!LO:LB:g=original	!	!	!	!	!	!	!
=15	=15	=15	=15	=15	=15	=15	=15	=15	=15	=15	=15	=15	=15	=15	=15
!LO:TX:a:t=P:problem=mixed beam	!	!	!	!	!	!	!	!	!	!	!	!	!	!	!
8c\L	.	8cc\L	.	8ee-\L	.	8c\	Bi-	8ee-\	Bi-	.	.	4G/	4G/	8ee-\L	.
8c\	.	(16cc\L	.	16ee-\L	.	16c\	-du-	16ee-\	-du-	.	.	.	.	16ee-\L	.
.	.	16bn\JJ)	.	16dd\JJ	.	16Bn\	-um	16dd\	-um	.	.	.	.	16dd\JJ	.
8C/	6 5	8cc\L	.	8ee-\L	.	8c\	Pas-	8ee-\	Pas-	.	.	8r	8r	8ee-\L	.
8F/J	.	8a-X\J	.	8cc\J	.	8F\	-cha	8cc\	-cha	.	.	8G/	8G/	8cc\J	.
!	!	!	!	!	!	!	!	!	!	!	!	!	!	!LO:LB:g=original	!
!	!	!	!	!LO:TX:a:t=P:problem=mixed beam	!	!	!	!	!	!	!	!	!	!LO:TX:a:t=P:problem=mixed beam	!
8G\L	n	8g\L	.	8dd\L	.	8G\	fi-	8dd\	fi-	.	.	8G/L	8G/L	8dd\L	.
8G\J	.	8dd\	.	8gg\	.	8G\	-et	8dd\	-et	.	.	16G/L	16G/L	8gg\	.
.	.	.	.	.	.	.	.	.	.	.	.	16G/JJ	16G/JJ	.	.
!	!	!	!	!	!	!	!	!	!	!	!	!	!LO:LB:g=original	!	!
8r	.	8g\	.	8g/	.	8r	.	8r	.	.	.	8G/L	8G/L	8g/	.
8G\	6 4	8ee-\J	.	8gg\J	.	8c\	et	8ee-\	et	.	.	8G/J	8G/J	8gg\J	.
=16	=16	=16	=16	=16	=16	=16	=16	=16	=16	=16	=16	=16	=16	=16	=16
8G\L	7_ 5_	8dd\L	.	16ff\LL	.	8d\	Fi-	8ff\	Fi-	.	.	4G/	4G/	16ff\LL	.
.	.	.	.	16dd\J	.	.	.	.	.	.	.	.	.	16dd\J	.
8G\	.	16bn\L	.	8ee-\J	.	16Bn\	-li-	16dd\	-li-	.	.	.	.	8ee-\J	.
.	.	16cc\JJ	.	.	.	16c\	-us	16ee-\	-us	.	.	.	.	.	.
8G\	.	16dd\LL	.	16ff\LL	.	16d\	ho-	16.ff\	Ho-	.	.	8r	8r	16ff\LL	.
!	!	!LO:TX:a:t=d	!	!	!	!	!	!	!	!	!	!	!	!	!
.	.	16cc\	.	16ff\	.	16c\	-mi-	.	.	.	.	.	.	16ff\	.
.	.	.	.	.	.	.	.	32ff\	-mi-	.	.	.	.	.	.
8G\J	6 5	16cc\	.	16ee-\	.	16Bn\	-nis	16ee-\	-nis	.	.	8G/	8G/	16ee-\	.
.	.	16b\JJ	.	16dd\JJ	.	16A-\	tra-	16dd\	tra-	.	.	.	.	16dd\JJ	.
!LO:LB:g=original	!	!	!	!	!	!LO:LB:g=original	!	!	!	!	!	!LO:LB:g=original	!	!	!
!LO:TX:a:t=P:problem=mixed beam	!	!LO:TX:a:t=P:problem=mixed beam	!	!	!	!	!	!	!	!	!	!	!	!	!
8c\L	.	16cc\LL	.	16ee-\LL	.	8c\	-de-	8ee-\	-de-	.	.	8G/L	8G/L	16ee-\LL	.
.	.	16e-/	.	16cc\	.	.	.	.	.	.	.	.	.	16cc\	.
8AA-/J	.	16d/	.	16bn\	.	8C/	-tir	8cc\	-tur	.	.	16G/L	16G/L	16bn\	.
.	.	16e-/JJ	.	16cc\JJ	.	.	.	.	.	.	.	16G/JJ	16G/JJ	16cc\JJ	.
!	!	!LO:TX:a:t=P:problem=mixed beam	!	!LO:TX:a:t=P:problem=mixed beam	!	!	!	!	!	!	!	!LO:TX:a:t=P:problem=mixed beam	!LO:TX:a:t=P:problem=mixed beam	!LO:TX:a:t=P:problem=mixed beam	!
8r	.	8c/L	.	8c/L	.	8r	.	8r	.	.	.	8G/L	8G/L	8cc/L	.
8E-\	.	8ee-\J	.	8gg\J	.	8E-\	et	8gg\	ut	.	.	8e-\J	8g\J	8gg\J	.
!	!	!	!	!	!	!	!	!LO:LB:g=original	!	!	!	!	!	!	!
=17	=17	=17	=17	=17	=17	=17	=17	=17	=17	=17	=17	=17	=17	=17	=17
4B-\	.	8dd\L	.	8ff\L	.	4B-\	Cru-	8ff\L	cru-	.	.	4B-/	4f\	(8ff\L	.
.	.	16b-X\L	.	(16bn\'L	.	.	.	(16dd\L	.	.	.	.	.	16bn\'L	.
.	.	16a-/JJ	.	16cc\'JJ	.	.	.	16ee-\JJ)	.	.	.	.	.	16cc\'JJ	.
8r	.	16b-X\LL	.	16dd\'LL	.	8B-\	-ci-	8ff\	-ci-	.	.	8r	8r	16dd\'LL	.
.	.	16cc\	.	16ee-\'	.	.	.	.	.	.	.	.	.	16ee-\'	.
8B-\	6	16dd\	.	16ff\'	.	8B-\	-fi-	8gg\	-fi-	.	.	8e-\	8g\	16ff\'	.
.	-7	16ee-\JJ	.	16gg\'JJ)	.	.	.	.	.	.	.	.	.	16gg\'JJ)	.
*	*	*	*	*	*	*2\right	*	*	*	*	*	*	*	*	*
8B-\L	_	16ff\LL	.	16aa-\LL	.	2B-\T	-ga-	16aa-\LL	-ga-	.	.	16f\LL	16a-\LL	16aa-\LL	.
.	.	16ee-\J	.	16gg\J	.	.	.	16gg\J	.	.	.	16e-\JJ	16g\JJ	16gg\J	.
8B-\	.	8.ff\J	.	8.aa-\J	.	.	.	8.aa-\J	.	.	.	4f\	4a-\	8gg\J	.
8B-\	.	.	.	.	.	.	.	.	.	.	.	.	.	16ff\LL	.
.	.	16dd\LL	.	16ff\LL	.	.	.	16ff\LL	.	.	.	.	.	16gg\J	.
8B-\J	.	16ee-\	.	16gg\	.	.	.	16gg\	.	.	.	8B-/	8f\	8aa-\J	.
.	x	16ff\JJ	.	16aa-\JJ	.	.	.	16aa-\JJ	.	.	.	.	.	.	.
!	!	!LO:LB:g=original	!	!	!	!	!	!	!	!	!	!	!	!	!
=18	=18	=18	=18	=18	=18	=18	=18	=18	=18	=18	=18	=18	=18	=18	=18
8B-\L	6 4	8ee-\L	.	8gg\L	.	4B-\	-tur	8gg\	.	.	.	8e-/L	8g\L	8gg\L	.
8B-\J	x 3	8dd\J	.	8ff\J	.	.	.	8ff\	-tur	.	.	8B-/J	8f\J	8ff\J	.
8r	.	8r	.	8r	.	8r	.	8r	.	.	.	8r	8r	8r	.
8F\	6 5	8f/	.	(16dd\LL	.	8F\	cru-	(16dd\LL	Cru-	.	.	8G/	8G/	16dd\LL	.
.	.	.	.	16cc\JJ)	.	.	.	16cc\JJ)	.	.	.	.	.	16cc\JJ	.
!LO:TX:a:t=P:problem=mixed beam	!	!	!	!	!	!	!	!	!	!	!	!	!	!	!
8G\L	6 5	8g/L	.	8bn\L	.	8G\	-ci-	8bn\	-ci-	.	.	8G/L	8G/L	8bn\L	.
8F\	6 4	16e-/L	.	16cc\L	.	8F\	-fi-	(16cc\LL	-fi-	.	.	16G/L	16G/L	16cc\L	.
.	.	16f/JJ	.	16dd\JJ	.	.	.	16dd\JJ)	.	.	.	16G/JJ	16G/JJ	16dd\JJ	.
!	!	!	!	!	!	!LO:TX:a:t=P:problem=mixed beam	!	!	!	!	!	!	!	!	!
8G\	5 3	16g/LL	.	16ee-\LL	.	8G\L	-ga-	8ee-\L	-ga-	.	.	8G/L	8G/L	16ee-\LL	.
.	.	16e-/	.	16cc\	.	.	.	.	.	.	.	.	.	16cc\	.
8GG/J	.	16f/	.	16dd\	.	8GG/J	.	8dd\J	.	.	.	8G/J	8G/J	16dd\	.
.	.	16d/JJ	.	16b\JJ	.	.	.	.	.	.	.	.	.	16b\JJ	.
=19	=19	=19	=19	=19	=19	=19	=19	=19	=19	=19	=19	=19	=19	=19	=19
!	!	!	!	!LO:TX:a:t=P:problem=mixed beam	!	!	!	!	!	!	!	!	!	!	!
8C/L	-	8e-/L	.	8cc\L	.	8C/	-tur	8cc\	-tur	.	.	8G/L	8G/L	8cc\L	.
8E-\	5 3	8e-/	.	8e-/	.	8E-\	tunc	8e-/	tunc	.	.	8E-/J	8E-/	8e-/	.
8E-\	.	8g/	.	8g/	.	8G\	con-	8g\	.	.	.	8G/L	8G/	8g/	.
8E-\J	.	8b-X\J	.	8b-X\J	.	8B-X\	-gre-	8b-X\	congre-	.	.	8B-/J	8B-/J	8b-X\J	.
!	!	!	!	!	!	!	!	!LO:LB:g=original	!	!	!	!	!	!LO:LB:g=original	!
!	!	!LO:TX:a:t=P:problem=mixed beam	!	!	!	!	!	!	!	!	!	!	!	!	!
4E-\	.	8g/L|	.	8ee-\L	.	8G\	-ga-	8ee-\	ga-	.	.	8G/L	8e-\L|	8ee-\L	.
.	.	(16ee-\L	.	16gg\L	.	8E-\	-ti	8ee-\	-ti	.	.	16e-/L	(16g\L	16gg\L	.
.	.	16dd\JJ)	.	16ff\JJ	.	.	.	.	.	.	.	16B-/JJ	16f\JJ)	16ff\JJ	.
!	!	!	!	!	!	!LO:LB:g=original	!	!	!	!	!	!	!	!	!
8r	.	8ee-\L|	.	8gg\L	.	4r	.	4r	.	.	.	8e-/L	8g\L|	8gg\L	.
8E-\	.	(16dd\L	.	16ff\L	.	.	.	.	.	.	.	16B-/L	(16f\L	16ff\L	.
.	.	16cc\JJ)	.	16ee-\JJ	.	.	.	.	.	.	.	16G/JJ	16e-\JJ)	16ee-\JJ	.
!LO:LB:g=original	!	!	!	!	!	!	!	!	!	!	!	!	!LO:LB:g=original	!	!
=20	=20	=20	=20	=20	=20	=20	=20	=20	=20	=20	=20	=20	=20	=20	=20
8BB-X/L	.	8dd\L	.	8ff\L	.	4B-\	sunt	4ff\	sunt	.	.	4B-/	4f\	(8ff\L	.
8BB-/	.	(16b-X\L	.	(16b-\'L	.	.	.	.	.	.	.	.	.	16b-\'L	.
.	.	16an\JJ)	.	16cc\'JJ	.	.	.	.	.	.	.	.	.	16cc\'JJ	.
8BB-/	6 3	16b-\LL	.	16dd\'LL	.	8B-\	prin-	8ff\	.	.	.	8r	8r	16dd\'LL	.
.	.	16cc\	.	16ee-\'	.	.	.	.	.	.	.	.	.	16ee-\'	.
8BB-/J	7	16dd\	.	16ff\'	.	8BB-/	-ci-	8ff\	princi-	.	.	16B-/LL	16f\LL	16ff\'	.
.	5	16ee-\JJ	.	16gg\'JJ)	.	.	.	.	.	.	.	16e-/JJ	16g\JJ	16gg\'JJ)	.
4BB-/	.	16ff\LL	.	16aa-\LL	.	4BB-/	-pes	4ff\	-pes	.	.	16f\LL	16a-\LL	16aa-\LL	.
.	.	16ee-\J	.	16gg\J	.	.	.	.	.	.	.	16e-\JJ	16g\JJ	16gg\J	.
!	!	!	!	!	!	!	!	!	!	!	!	!LO:LB:g=original	!	!	!
!	!	!	!	!	!	!	!	!	!	!	!	!	!LO:TX:a:t=t	!	!
.	.	8ff\J	.	8aa-\J	.	.	.	.	.	.	.	4f\	4a-\	8aa-\J	.
!	!	!	!	!LO:TX:a:t=P:problem=mixed beam	!	!	!	!	!	!	!	!	!	!LO:TX:a:t=P:problem=mixed beam	!
8r	.	8b-\L	.	8b-\L	.	4r	.	4r	.	.	.	.	.	8b-/L	.
8BB-/	.	8ff\J	.	8aa-\J	.	.	.	.	.	.	.	8f\	8a-\	8aa-\J	.
!	!	!LO:LB:g=original	!	!	!	!	!	!	!	!	!	!	!	!	!
=21	=21	=21	=21	=21	=21	=21	=21	=21	=21	=21	=21	=21	=21	=21	=21
4E-\	.	8ee-\L	.	8gg\L	.	8G\	Sa-	8ee-\	Sa-	.	.	8e-\L	8g\L	8gg\L	.
.	.	16gg\L	.	16bb-\L	.	8G\	-cer-	8ee-\	-cer-	.	.	16g\L	16b-\L	16bb-\L	.
.	.	16ff\JJ	.	16aa-\JJ	.	.	.	.	.	.	.	16f\JJ	16a-\JJ	16aa-\JJ	.
8E-\	9	8gg\L	.	8bb-\L	.	8A-\L	-do-	8ff\	-do-	.	.	8g\L	8b-\L	8bb-\L	.
.	8	.	.	.	.	.	.	.	.	.	.	.	.	.	.
8r	.	16ff\L	.	16aa-\L	.	8G\J	.	8ee-\	.	.	.	16f\L	16a-\L	16aa-\L	.
.	.	16ee-\JJ	.	16gg\JJ	.	.	.	.	.	.	.	16e-\JJ	16g\JJ	16gg\JJ	.
!	!	!	!	!	!	!LO:TX:a:t=t	!	!	!	!	!	!	!	!	!
4BB-/	.	16dd\LL	.	16ff\LL	.	4F\	-tum	4dd\	-tum	.	.	4B-/	4f\	16ff\LL	.
.	.	16bb-\	.	16bb-\	.	.	.	.	.	.	.	.	.	16bb-\	.
.	.	16ff\	.	16ff\	.	.	.	.	.	.	.	.	.	16ff\	.
.	.	16dd\JJ	.	16dd\JJ	.	.	.	.	.	.	.	.	.	16dd\JJ	.
!	!	!LO:TX:a:t=P:problem=mixed beam	!	!LO:TX:a:t=P:problem=mixed beam	!	!	!	!	!	!	!	!	!	!LO:TX:a:t=P:problem=mixed beam	!
8r	.	8b-/L	.	8b-\L	.	8r	.	8r	.	.	.	8r	8r	8b-/L	.
8BB-/	6 4	8bb-\J	.	8bb-\J	.	8B-\	et	8gg\	et	.	.	8g\	8b-\	8bb-\J	.
=22	=22	=22	=22	=22	=22	=22	=22	=22	=22	=22	=22	=22	=22	=22	=22
!	!	!	!	!	!	!	!	!	!	!	!	!	!LO:TX:a:t=P:problem= takt ze znakiem repetycji	!	!
8BB-/L	7_ 5_	8ff\L	.	8aa-X\L	.	8A-\	se-	8ff\	se-	.	.	8e-\L	8a-\L	8aa-X\L	.
8BB-/	.	16dd\L	.	16ff\L	.	16F\LL	-ni-	16dd\LL	-ni-	.	.	16B-\L	16f\L	16ff\L	.
.	.	16ee-\JJ	.	16gg\JJ	.	16G\JJ	.	16ee-\JJ	.	.	.	16e-\JJ	16g\JJ	16gg\JJ	.
8BB-/	6_ 4_	16ff\LL	.	16aa-\LL	.	8A-\	-o-	8ff\L	-ores	.	.	16f\LL	16a-\LL	16aa-\LL	.
.	.	16dd\	.	16ff\	.	.	.	.	.	.	.	16B-\	16f\	16ff\	.
8BB-/J	.	16ee-\	.	16gg\	.	8G\	-res	8ee-\J	.	.	.	16e-\	16g\	16gg\	.
.	.	16b-\JJ	.	16ee-\JJ	.	.	.	.	.	.	.	16B-\JJ	16e-\JJ	16ee-\JJ	.
4BB-/	5 3	8dd\L	.	16ff\LL	.	16.F\	po-	16dd\	po-	.	.	4B-/	4f\	(8ff\L	.
!	!	!	!	!	!	!	!	!LO:LB:g=original	!	!	!	!	!	!	!
!	!	!	!	!	!	!	!	!LO:SIC:s:=:v:8dd	!	!	!	!	!	!	!
.	.	.	.	16b-\J	.	.	.	16ryy	.	.	.	.	.	.	.
.	.	.	.	.	.	32F\	-pu-	.	.	.	.	.	.	.	.
.	.	16b-\L	.	(8cc\'J	.	8F\	-li	16dd\	-pu-	.	.	.	.	16b-\'L	.
.	.	16an\JJ	.	.	.	.	.	16dd\	-li	.	.	.	.	16cc\'JJ	.
8r	.	16b-\LL	.	16dd\'LL	.	4r	.	4r	.	.	.	8r	8r	16dd\'LL	.
.	.	16cc\	.	16ee-\'	.	.	.	.	.	.	.	.	.	16ee-\'	.
8BB-/	7 5	16dd\	.	16ff\'	.	.	.	.	.	.	.	8e-\	8g\	16ff\'	.
.	.	16ee-\JJ	.	16gg\'JJ)	.	.	.	.	.	.	.	.	.	16gg\'JJ)	.
!	!	!	!	!	!	!LO:LB:g=original	!	!	!	!	!	!	!	!LO:LB:g=original	!
=23	=23	=23	=23	=23	=23	=23	=23	=23	=23	=23	=23	=23	=23	=23	=23
8BB-/L	7_ 5_	8ff\L	.	8aa-\L	.	8A-\	et-	8ff\	Et	.	.	8f\L	8a-\Lyy	8aa-\L	.
8BB-/	.	16dd\L	.	16ff\L	.	16F\LL	-con-	(16dd\LL	con-	.	.	16B-\L	16f\Lyy	16ff\L	.
.	.	16ee-\JJ	.	16gg\JJ	.	16G\JJ	.	16ee-\JJ)	-si-	.	.	16e-\JJ	16g\JJyy	16gg\JJ	.
8BB-/	.	16ff\LL	.	16aa-\LL	.	16A-\	-si-	16ff\	-li-	.	.	8f\L	16a-\LLyy	16aa-\LL	.
.	6_ 4_	16dd\	.	16ff\	.	16F\	-li-	16dd\	-um	o	.	.	16f\yy	16ff\	.
8BB-/J	.	16ee-\	.	16gg\	.	16G\	-um	16ee-\	fe-	iu	.	8e-\J	16g\yy	16gg\	.
!	!	!	!	!	!	!	!	!LO:TX:a:t=P:problem=♭ above	!	!	!	!	!	!	!
.	.	16b-\JJ	.	16ee-\JJ	.	16E-\	fe-	16cc\	-ce-	sto	.	.	16e-\JJyy	16ee-\JJ	.
4BB-/	5 3	16dd\LL	.	16ff\LL	.	8F\	-ce-	8dd\	-ce-	.	.	4B-/	4f\yy	16ff\LL	.
.	x	16b-\J	.	16b-\J	.	.	.	.	.	.	.	.	.	16b-\J	.
.	.	8.ff\J	.	8.aa-\J	.	4F\	-runt	4dd\	-runt	.	.	.	.	8.aa-\J	.
8r	.	.	.	.	.	.	.	.	.	.	.	8r	8ryy	.	.
!	!	!LO:TX:a:t=P:problem=mixed beam	!	!	!	!	!	!	!	!	!	!	!	!	!
.	.	16dd\LL	.	16ff\LL	.	.	.	.	.	.	.	.	.	16ff\LL	.
8E-\	.	16gg\	.	16bb-\	.	8G\	ut	8dd\	ut	.	.	8e-\	8g\yy	16bb-\	.
.	.	16g/JJ	.	16ee-\JJ	.	.	.	.	.	.	.	.	.	16ee-\JJ	.
!LO:LB:g=original	!	!LO:LB:g=original	!	!	!	!	!	!	!	!	!	!	!	!	!
=24	=24	=24	=24	=24	=24	=24	=24	=24	=24	=24	=24	=24	=24	=24	=24
8F\L	6	8f/L	.	16dd\LL	.	8F\	Je-	8dd\	Je-	.	.	8f\L	8f\L	16dd\LL	.
.	.	.	.	16b-\	.	.	.	.	.	.	.	.	.	16b-\	.
16G\L	6	16g/L	.	16ee-\	.	(16G\LL	-sum	16ee-\LL	-sum	.	.	16B-\L	16g\L	16ee-\	.
16A-\JJ	6	16a-X/JJ	.	16ff\JJ	.	16A-\JJ)	.	16ff\JJ	.	.	.	16e-\JJ	16a-\JJ	16ff\JJ	.
!LO:TX:a:t=P:problem=mixed beam	!	!	!	!	!	!	!	!	!	!	!	!	!	!	!
8B-\L	6	16b-/LL	.	16gg\LL	.	8B-\	do-	16gg\LL	do-	.	.	8f\L	8b-\L	16gg\LL	.
.	.	16g/	.	16ee-\	.	.	.	16ee-\JJ	.	.	.	.	.	16ee-\	.
8BB-/J	5 3	16a-/	.	16ff\	.	16BB-/	-lo-	16ff\	-lo-	.	.	8e-\J	8a-\J	16ff\	.
.	.	16f/JJ	.	16dd\JJ	.	16BB-/	-te-	16dd\	-te-	.	.	.	.	16dd\JJ	.
!	!	!	!	!LO:TX:a:t=P:problem=mixed beam	!	!	!	!	!	!	!	!	!	!LO:TX:a:t=P:problem=mixed beam	!
4E-/	.	8g/L	.	8ee-\L	.	8E-\	-ne-	8ee-\	-ne-	.	.	4G/	4g\	(8ee-\L	.
.	.	16e-/L	.	(16e-/'L	.	8E-\	-rent	8ee-\	-rent	.	.	.	.	16e-/'L	.
.	.	16d/JJ	.	16f/'JJ	.	.	.	.	.	.	.	.	.	16f/'JJ	.
4r	.	16e-/LL	.	16g/'LL	.	4r	.	4r	.	.	.	8r	4r	16g/'LL	.
.	.	16f/	.	16a-/'	.	.	.	.	.	.	.	.	.	16a-/'	.
.	.	16g/	.	16b-\'	.	.	.	.	.	.	.	8e-\	.	16b-\'	.
.	.	16a-X/JJ	.	16cc\'JJ)	.	.	.	.	.	.	.	.	.	16cc\'JJ)	.
!	!	!	!	!	!	!LO:LB:g=original	!	!LO:LB:g=original	!	!	!	!LO:LB:g=original	!LO:LB:g=original	!	!
=25	=25	=25	=25	=25	=25	=25	=25	=25	=25	=25	=25	=25	=25	=25	=25
2r	.	16b-X/LL	.	16dd-X\LL	.	8G\	et	8dd\	et	.	.	8e-\L	8e-\L	16dd-X\LL	.
.	.	16a-/	.	16cc\	.	.	.	.	.	.	.	.	.	16cc\	.
.	.	16b-/	.	16dd-\	.	8G\	occi	8dd\	Oc-	.	.	16e-\L	16e-\L	16dd-\	.
.	.	16g/JJ	.	16b-\JJ	.	.	.	.	.	.	.	16e-\JJ	16e-\JJ	16b-\JJ	.
.	.	16b-/LL	.	16dd-\LL	.	8.G\	de-	8.dd\	-ci-	.	.	8e-\L	8e-\L	16dd-\LL	.
.	.	16a-/	.	16cc\	.	.	.	.	.	.	.	.	.	16cc\	.
.	.	16b-/	.	16dd-\	.	.	.	.	.	.	.	8e-\J	8e-\J	16dd-\	.
.	.	16g/JJ	.	16b-\JJ	.	16G\	.	16dd\	-de-	.	.	.	.	16b-\JJ	.
!	!	!	!	!LO:LB:g=original	!	!	!	!	!	!	!	!	!	!	!
4F\	n	8a-X/L	.	8cc\L	.	4A-\	-rent	4cc\T	-rent	.	.	4e-\T	4e-\T	(8cc\L	.
.	.	16f/L	.	(<16f/'L	.	.	.	.	.	.	.	.	.	16f/'L	.
.	.	16en/JJ	.	16g/'JJ	.	.	.	.	.	.	.	.	.	16g/'JJ	.
4r	.	16f/LL	.	16an/'LL	.	4r	.	4r	.	.	.	4r	4r	16an/'LL	.
.	.	16g/	.	16b-/'	.	.	.	.	.	.	.	.	.	16b-\'	.
.	.	16a-/	.	16cc/'	.	.	.	.	.	.	.	.	.	16cc\'	.
.	.	16b-/JJ	.	16dd-/'JJ)	.	.	.	.	.	.	.	.	.	16dd-\'JJ)	.
!	!	!	!	!	!	!	!	!	!	!	!	!	!	!LO:LB:g=original	!
=26	=26	=26	=26	=26	=26	=26	=26	=26	=26	=26	=26	=26	=26	=26	=26
*	*	*	*	*	*	*	*ij	*	*ij	*	*	*	*	*	*
2r	.	16cc\LL	.	16ee-\LL	.	8An\	et	8ee-\	et	.	.	8f\L	8f\L	16ee-\LL	.
.	.	16b-\	.	16dd\	.	.	.	.	.	.	.	.	.	16dd\	.
.	.	16cc\	.	16ee-\	.	8A\	oc-	8ee-\	oc-	.	.	16f\L	16f\L	16ee-\	.
.	.	16an\JJ	.	16cc\JJ	.	.	.	.	.	.	.	16f\JJ	16f\JJ	16cc\JJ	.
.	.	16cc\LL	.	16ee-\LL	.	8.A\	-ci-	8.ee-\	-ci-	.	.	8f\L	8f\L	16ee-\LL	.
.	.	16b-\	.	16dd\	.	.	.	.	.	.	.	.	.	16dd\	.
.	.	16cc\	.	16ee-\	.	.	.	.	.	.	.	8f\J	8f\J	16ee-\	.
.	.	16a\JJ	.	16cc\JJ	.	16A\	-de-	16ddn\	-de-	.	.	.	.	16cc\JJ	.
!	!	!LO:LB:g=original	!	!	!	!	!	!	!	!	!	!	!	!	!
!	!	!	!	!	!	!	!	!	!	!	!	!LO:TX:a:t=t	!	!	!
4BB-/	.	8b-/L	.	8dd\L	.	4B-\	-rent	4dd\	-rent	.	.	4f\	4f\	(8dd\L	f
.	.	16b-/L	.	(16b-\'L	.	.	.	.	.	.	.	.	.	16b-\'L	.
.	.	16an/JJ	.	16cc\'JJ	.	.	.	.	.	.	.	.	.	16cc\'JJ	.
4r	.	16b-\LL	.	16dd\'LL	.	4r	.	4r	.	.	.	4r	4r	16dd\'LL	.
.	.	16cc\	.	16ee-\'	.	.	.	.	.	.	.	.	.	16ee-\'	.
.	.	16dd\	.	16ff\'	.	.	.	.	.	.	.	.	.	16ff\'	.
.	.	16ee-\JJ	.	16gg\'JJ)	.	.	.	.	.	.	.	.	.	16gg\'JJ)	.
=27	=27	=27	=27	=27	=27	=27	=27	=27	=27	=27	=27	=27	=27	=27	=27
8BB-/L	-7_ 5_	16ff\LL	.	16aa-\LL	.	8B-\	et	8dd\	et	.	.	8f\L	8a-\L	16aa-\LL	.
.	.	16ee-\	.	16gg\	.	.	.	.	.	.	.	.	.	16gg\	.
8BB-/	.	16ff\	.	16aa-\	.	8B-\	oc-	8dd\	oc-	.	.	8f\	8a-\	16aa-\	.
.	.	16dd\JJ	.	16ff\JJ	.	.	.	.	.	.	.	.	.	16ff\JJ	.
8BB-/	.	16ff\LL	.	16aa-\LL	.	8.B-\	-ci-	8.dd\	-ci-	.	.	8f\	8a-\	16aa-\LL	.
.	x	16ee-\	.	16gg\	.	.	.	.	.	.	.	.	.	16gg\	.
8BB-/J	.	16ff\	.	16aa-\	.	.	.	.	.	.	.	8f\J	8a-\J	16aa-\	.
.	.	16dd\JJ	.	16ff\JJ	.	16BB-/	-de-	16dd\	-de-	.	.	.	.	16ff\JJ	.
!	!	!	!	!	!	!	!	!	!	!	!	!LO:TX:a:t=t	!	!	!
4E-\	.	16ee-/LL	.	16gg\LL	.	4E-\	-rent	4ee-\T	-rent	.	.	4e-\	4g\t	16gg\LL	.
.	.	16b-/	.	16ee-\	.	.	.	.	.	.	.	.	.	16ee-\	.
.	.	16g/	.	16b-\	.	.	.	.	.	.	.	.	.	16cc\	.
.	.	16e-/JJ	.	16g/JJ	.	.	.	.	.	.	.	.	.	16g\JJ	.
!	!	!LO:TX:a:t=P:problem=mixed beam	!	!LO:TX:a:t=P:problem=mixed beam	!	!	!	!	!	!	!	!	!	!LO:TX:a:t=P:problem=mixed beam	!
8r	.	8B-/L	.	8e-/L	.	8r	.	8r	.	.	.	4r	4r	8e-/L	.
*	*	*	*	*	*	*	*Xij	*	*Xij	*	*	*	*	*	*
8G\	.	8dd\J	.	8gg\J	.	8G\	oc-	8dd\	oc-	.	.	.	.	8gg\J	.
!	!	!	!	!	!	!LO:LB:g=original	!	!LO:LB:g=original	!	!	!	!	!	!	!
=28	=28	=28	=28	=28	=28	=28	=28	=28	=28	=28	=28	=28	=28	=28	=28
!LO:TX:a:t=P:problem=mixed beam	!	!	!	!	!	!	!	!	!	!	!	!	!	!	!
8c\L	6	16cc/LL	.	16ee-\LL	.	8c\	-ci-	8ee-\	-ci-	.	.	8G/L	8G/L	16ee-\LL	.
.	.	16g/	.	16cc\	.	.	.	.	.	.	.	.	.	16cc\	.
8F\	5	16e-/	.	16dd\	.	16F\	-de-	16dd\	-de-	.	.	16G/L	16G/L	16dd\	.
.	.	16c/JJ	.	16an/JJ	.	16F\	-rent	16cc\	-rent	.	.	16G/JJ	16G/JJ	16an/JJ	.
!	!	!	!	!	!	!LO:TX:a:t=P:problem=mixed beam	!	!	!	!	!	!	!	!	!
8G\	.	8g/L	.	4bn\t	.	8G\L	e-	4bn\t	E-	.	.	8G/L	8G/L	4bn\	.
8GG/J	.	8G/J	.	.	.	8GG/J	.	.	.	.	.	8G/J	8G/J	.	.
!LO:LB:g=original	!	!	!	!LO:LB:g=original	!	!	!	!	!	!	!	!	!	!	!
!LO:TX:a:t=Solo	!	!	!	!	!	!	!	!	!	!	!	!	!	!	!
8C/L	.	8e-/L	.	8cc\L	.	4C/	-um	4cc\	-um	.	.	4G/	4G/	8cc\L	.
8C/	.	16d/L	.	16bn\L	.	.	.	.	.	.	.	.	.	16bn\L	.
.	.	16e-/JJ	.	16cc\JJ	.	.	.	.	.	.	.	.	.	16cc\JJ	.
8C/	.	16e-/LL	.	16g/LL	.	4r	.	4r	.	.	.	4r	4r	16gg\LL	.
.	.	16d/	.	16f/	.	.	.	.	.	.	.	.	.	16ff\	.
8C/J	.	16c/	.	16e-/	.	.	.	.	.	.	.	.	.	16ee-\	.
.	.	16Bn/JJ	.	16d/JJ	.	.	.	.	.	.	.	.	.	16dd\JJ	.
!	!	!LO:LB:g=original	!	!	!	!	!	!	!	!	!	!	!	!LO:LB:g=original	!
=29	=29	=29	=29	=29	=29	=29	=29	=29	=29	=29	=29	=29	=29	=29	=29
!	!	!LO:TX:a:t=P:problem=mixed beam	!	!LO:TX:a:t=P:problem=mixed beam	!	!LO:TX:a:t=5	!	!LO:TX:a:t=6	!	!	!	!LO:TX:a:t=3	!LO:TX:a:t=3	!	!
4C/	.	8c/L	.	8c/L	.	00r	.	00r	.	.	.	0r	0r	8cc\L	.
.	.	16cc\L	.	16ee-\L	.	.	.	.	.	.	.	.	.	16ee-\L	.
.	.	16bn\JJ	.	16dd\JJ	.	.	.	.	.	.	.	.	.	16dd\JJ	.
8r	.	8cc\L	.	8ee-\L	.	.	.	.	.	.	.	.	.	8ee-\L	.
8C/	.	16bn\L	.	16dd\L	.	.	.	.	.	.	.	.	.	16dd\L	.
!	!	!	!	!LO:SIC:t:=:v: litera "p" lub "f" lub nie wiadomo po co dźwięk bb	!	!	!	!	!	!	!	!	!	!	!
.	.	16an/JJ	.	16cc\JJ	.	.	.	.	.	.	.	.	.	16cc\JJ	.
.	.	.	.	.	.	.	.	.	.	.	.	.	.	8qee-/	.
8G\L	.	16b\LL	.	16dd\LL	.	.	.	.	.	.	.	.	.	16dd\LL	.
.	.	16a/J	.	16cc\J	.	.	.	.	.	.	.	.	.	16cc\J	.
8G\	.	8.b\J	.	8dd\J	.	.	.	.	.	.	.	.	.	8dd\J	.
!	!	!	!	!LO:TX:a:t=P:problem=mixed beam	!	!	!	!	!	!	!	!	!	!LO:TX:a:t=P:problem=mixed beam	!
8G\	.	.	.	16G/LL	.	.	.	.	.	.	.	.	.	16g/LL	.
.	.	16dd\LL	.	16ff\	.	.	.	.	.	.	.	.	.	16ff\	.
8G\J	.	16cc\	.	16ee-\	.	.	.	.	.	.	.	.	.	16ee-\	.
.	.	16b\JJ	.	16dd\JJ	.	.	.	.	.	.	.	.	.	16dd\JJ	.
=30	=30	=30	=30	=30	=30	=30	=30	=30	=30	=30	=30	=30	=30	=30	=30
!LO:TX:a:t=P:problem=mixed beam	!	!	!	!	!	!	!	!	!	!	!	!	!	!	!
8c\L	.	16cc\LL	.	16dd\LL	.	.	.	.	.	.	.	.	.	16dd\LL	.
.	.	16e-/	.	16cc\	.	.	.	.	.	.	.	.	.	16cc\	.
8C/	.	16d/	.	16bn\	.	.	.	.	.	.	.	.	.	16bn\	.
.	.	16e-/JJ	.	16cc\JJ	.	.	.	.	.	.	.	.	.	16cc\JJ	.
!	!	!LO:TX:a:t=P:problem=mixed beam	!	!LO:TX:a:t=P:problem=mixed beam	!	!	!	!	!	!	!	!	!	!	!
8GG/	.	16c/LL	.	16c/LL	.	.	.	.	.	.	.	.	.	16cc\LL	.
.	.	16bn\	.	16dd\	.	.	.	.	.	.	.	.	.	16dd\	.
8GG/J	.	16cc\	.	16ee-\	.	.	.	.	.	.	.	.	.	16ee-\	.
.	.	16dd\JJ	.	16ff\JJ	.	.	.	.	.	.	.	.	.	16ff\JJ	.
!	!	!LO:TX:a:t=P:problem=mixed beam	!	!LO:TX:a:t=P:problem=mixed beam	!	!	!	!	!	!	!	!	!	!LO:TX:a:t=P:problem=mixed beam	!
4C/	.	8ee-\L	.	8gg\L	.	.	.	.	.	.	.	.	.	8gg\L	.
.	.	16e-/L	.	16g/L	.	.	.	.	.	.	.	.	.	16g/L	.
.	.	16d/JJ	.	16f/JJ	.	.	.	.	.	.	.	.	.	16f/JJ	.
!	!	!LO:TX:a:t=P:problem=mixed beam	!	!LO:TX:a:t=P:problem=mixed beam	!	!	!	!	!	!	!	!	!	!LO:TX:a:t=P:problem=mixed beam	!
8r	.	16e-/LL	.	16g/LL	.	.	.	.	.	.	.	.	.	16g/LL	.
.	.	16ee-\	.	16gg\	.	.	.	.	.	.	.	.	.	16gg\	.
8C/	.	16dd\	.	16ff\	.	.	.	.	.	.	.	.	.	16ff\	.
.	.	16cc\JJ	.	16ee-\JJ	.	.	.	.	.	.	.	.	.	16ee-\JJ	.
!	!	!	!	!LO:LB:g=original	!	!	!	!	!	!	!	!	!	!	!
=31	=31	=31	=31	=31	=31	=31	=31	=31	=31	=31	=31	=31	=31	=31	=31
!	!	!LO:TX:a:t=P:problem=mixed beam	!	!LO:TX:a:t=P:problem=mixed beam	!	!	!	!	!	!	!	!	!	!LO:TX:a:t=P:problem=mixed beam	!
4GG/	.	8dd\L	.	8ff\L	.	.	.	.	.	.	.	1r	1r	8ff\L	.
.	.	16d/L	.	16f/L	.	.	.	.	.	.	.	.	.	16f/L	.
.	.	16c/JJ	.	16e-/JJ	.	.	.	.	.	.	.	.	.	16e-/JJ	.
!	!	!LO:TX:a:t=P:problem=mixed beam	!	!LO:TX:a:t=P:problem=mixed beam	!	!	!	!	!	!	!	!	!	!LO:TX:a:t=P:problem=mixed beam	!
8r	.	16d/LL	.	16f/LL	.	.	.	.	.	.	.	.	.	16f/LL	.
.	.	16dd\	.	16ff\	.	.	.	.	.	.	.	.	.	16ff\	.
8GG/	.	16cc\	.	16ee-\	.	.	.	.	.	.	.	.	.	16ee-\	.
.	.	16b-\JJ	.	16dd\JJ	.	.	.	.	.	.	.	.	.	16dd\JJ	.
!	!	!LO:TX:a:t=P:problem=mixed beam	!	!LO:TX:a:t=P:problem=mixed beam	!	!	!	!	!	!	!	!	!	!LO:TX:a:t=P:problem=mixed beam	!
4C/	.	8cc\L	.	8ee-\L	.	.	.	.	.	.	.	.	.	8ee-\L	.
.	.	16c/L	.	16e-/L	.	.	.	.	.	.	.	.	.	16e-/L	.
.	.	16Bn/JJ	.	16d/JJ	.	.	.	.	.	.	.	.	.	16d/JJ	.
!	!	!LO:TX:a:t=P:problem=mixed beam	!	!LO:TX:a:t=P:problem=mixed beam	!	!	!	!	!	!	!	!	!	!LO:TX:a:t=P:problem=mixed beam	!
8r	.	16c/LL	.	16e-/LL	.	.	.	.	.	.	.	.	.	16e-/LL	.
.	.	16cc\	.	16ee-\	.	.	.	.	.	.	.	.	.	16ee-\	.
8C/	.	16b-\	.	16dd\	.	.	.	.	.	.	.	.	.	16dd\	.
!	!	!LO:TX:a:t=a	!	!	!	!	!	!	!	!	!	!	!	!	!
.	.	16an\JJ	.	16cc\JJ	.	.	.	.	.	.	.	.	.	16cc\JJ	.
!	!	!LO:LB:g=original	!	!	!	!	!	!	!	!	!	!	!	!LO:LB:g=original	!
=32	=32	=32	=32	=32	=32	=32	=32	=32	=32	=32	=32	=32	=32	=32	=32
8G\L	.	16g/LL	.	16dd\LL	.	.	.	.	.	.	.	8r	8r	16dd\LL	.
.	.	16e-/	.	16g/	.	.	.	.	.	.	.	.	.	16g\	.
8E-\	.	16g/	.	16ee-\	.	.	.	.	.	.	.	16G/LL	16e-\LL	16ee-\	.
.	.	16cc\JJ	.	16ff\JJ	.	.	.	.	.	.	.	16B-/JJ	16f\JJ	16ff\JJ	.
8E-\	.	16ee-\LL	.	16gg\LL	.	.	.	.	.	.	.	8e-\L	8g\L	16gg\LL	.
.	.	16g/	.	16ee-\	.	.	.	.	.	.	.	.	.	16ee-\	.
8E-\J	.	16ee-\	.	16gg\	.	.	.	.	.	.	.	8f\J	8a-\J	16gg\	.
.	.	16ff\JJ	.	16aa-\JJ	.	.	.	.	.	.	.	.	.	16aa-\JJ	.
8E-\L	.	8gg\L	.	8bb-X\L	.	.	.	.	.	.	.	8g\L	8b-\L	8bb-X\L	.
8E-\	.	16ff\L	.	16aa-\L	.	.	.	.	.	.	.	16f\L	16a-\L	16aa-\L	.
.	.	16ee-\JJ	.	16gg\JJ	.	.	.	.	.	.	.	16e-\JJ	16g\JJ	16gg\JJ	.
!	!	!	!	!	!	!	!	!	!	!	!	!LO:LB:g=original	!	!	!
8A-\	.	8ff\L	.	8aa-\L	.	.	.	.	.	.	.	8f\L	8a-\L	8aa-\L	.
8A-\J	.	8ee-\J	.	8gg\J	.	.	.	.	.	.	.	8e-\J	8g\J	8gg\J	.
!LO:LB:g=original	!	!	!	!	!	!	!	!	!	!	!	!	!	!	!
=33	=33	=33	=33	=33	=33	=33	=33	=33	=33	=33	=33	=33	=33	=33	=33
8B-\L	.	16dd\LL	.	16ff\LL	.	1r	.	0r	.	.	.	16B-\LL	16f\LL	16ff\LL	.
.	.	16ee-\J	.	16gg\J	.	.	.	.	.	.	.	16e-\J	16g\J	16gg\J	.
8B-\	.	8.ff\J	.	8.aa-\J	.	.	.	.	.	.	.	8.f\J	8.a-\J	8.aa-\J	.
8B-\	.	.	.	.	.	.	.	.	.	.	.	.	.	.	.
!	!	!LO:TX:a:t=P:problem=mixed beam	!	!	!	!	!	!	!	!	!	!	!	!	!
.	.	(16dd\LL	.	16ff\LL	.	.	.	.	.	.	.	16B-\LL	16f\LL	16ff\LL	.
8B-\J	.	16ee-\)	.	16gg\	.	.	.	.	.	.	.	16e-\	16g\	16gg\	.
.	.	16g/JJ	.	16ee-\JJ	.	.	.	.	.	.	.	16g\JJ	16.a-\JJ	16ee-\JJ	.
8B-\L	.	8f/L	.	8dd\L	.	.	.	.	.	.	.	16B-\LL	.	8dd\L	.
.	.	.	.	.	.	.	.	.	.	.	.	.	16f\LL	.	.
.	.	.	.	.	.	.	.	.	.	.	.	16e-\J	.	.	.
.	.	.	.	.	.	.	.	.	.	.	.	.	16g\	.	.
16G\L	.	16g/L	.	16ee-\L	.	.	.	.	.	.	.	8f\J	.	16ee-\L	.
!	!	!	!	!	!	!	!	!	!	!	!	!	!LO:SIC:s:=:v:8aa-	!	!
.	.	.	.	.	.	.	.	.	.	.	.	.	16a-\JJ	.	.
16A-\JJ	.	16a-/JJ	.	16ff\JJ	.	.	.	.	.	.	.	.	.	16ff\JJ	.
.	.	.	.	.	.	.	.	.	.	.	.	.	32ryy	.	.
!LO:TX:a:t=P:problem=mixed beam	!	!	!	!	!	!	!	!	!	!	!	!	!	!	!
8B-\L	.	16b-/LL	.	16gg\LL	.	.	.	.	.	.	.	8g\L	8b-\L	16gg\LL	.
.	.	16g/	.	16ee-\	.	.	.	.	.	.	.	.	.	16ee-\	.
8BB-/J	.	16a-/	.	16ff\	.	.	.	.	.	.	.	8f\J	8a-\J	16ff\	.
.	.	16f/JJ	.	16dd\JJ	.	.	.	.	.	.	.	.	.	16dd\JJ	.
!	!	!	!	!LO:LB:g=original	!	!	!	!	!	!	!	!	!	!	!
=34	=34	=34	=34	=34	=34	=34	=34	=34	=34	=34	=34	=34	=34	=34	=34
!	!	!	!	!	!	!LO:TX:a:t=Solo	!	!	!	!	!	!	!	!	!
8E-\L	.	8g/	.	4ee-\	.	8r	.	.	.	.	.	8e-\L	8g\L	4ee-\	.
8E-\	.	8r	.	.	.	(16E-\LL	Di-	.	.	.	.	16e-\L	16g\L	.	.
.	.	.	.	.	.	16F\JJ)	.	.	.	.	.	16c\JJ	16f/JJ	.	.
8E-\	.	4r	.	4r	.	(16G\LL	-ce-	.	.	.	.	16e-\LL	16g\LL	4r	.
.	.	.	.	.	.	16A-\JJ)	.	.	.	.	.	16f\	16a-\	.	.
8E-\J	.	.	.	.	.	(16B-\LL	-bant	.	.	.	.	16g\	16b-\	.	.
.	.	.	.	.	.	16A-\JJ)	.	.	.	.	.	16f\JJ	16a-\JJ	.	.
8E-\L	.	2r	.	2r	.	8G\	au-	.	.	.	.	4e-\	4g\	2r	.
8E-\	.	.	.	.	.	8E-\	-tem	.	.	.	.	.	.	.	.
8G\	.	.	.	.	.	8e-\	non	.	.	.	.	4r	4r	.	.
8E-\J	.	.	.	.	.	8E-\	in	.	.	.	.	.	.	.	.
!	!	!LO:LB:g=original	!	!	!	!	!	!	!	!	!	!	!	!	!
=35	=35	=35	=35	=35	=35	=35	=35	=35	=35	=35	=35	=35	=35	=35	=35
8F\L	.	2r	.	2r	.	8A-\	di-	2r	.	.	.	2r	2r	2r	.
8F\	.	.	.	.	.	8A-\	-e	.	.	.	.	.	.	.	.
!	!	!	!	!	!	!LO:LB:g=original	!	!	!	!	!	!	!	!	!
8D\	.	.	.	.	.	4A-\	fe-	.	.	.	.	.	.	.	.
8BB-/J	.	.	.	.	.	.	.	.	.	.	.	.	.	.	.
8E-\L	.	16r	.	16r	.	8G\	-sto	8r	.	.	.	8r	8r	16r	.
.	.	16cc\LL	.	16ee-\LL	.	.	.	.	.	.	.	.	.	16ee-\LL	.
8An\	6 5	16an\	.	16cc\	.	8An\	ne	8cc\	ne-	.	.	8f/L	8f\L	16cc\	.
.	.	16cc\JJ	.	16ee-\JJ	.	.	.	.	.	.	.	.	.	16ee-\JJ	.
!	!	!	!	!	!	!	!	!LO:TX:a:t=Tutti	!	!	!	!	!	!	!
8A\	.	16ee-\LL	.	16aan\LL	.	8A\	for-	8cc\	-for-	.	.	8f\	8f\	16aan\LL	.
.	.	16cc\	.	16ee-\	.	.	.	.	.	.	.	.	.	16ee-\	.
8A\J	.	16a\	.	16cc\	.	16A\	-te	16cc\	-te	.	.	8f\J	8f\J	16cc\	.
.	.	16cc\JJ	.	16ee-\JJ	.	16A\	tu-	16cc\	tu-	.	.	.	.	16ee-\JJ	.
=36	=36	=36	=36	=36	=36	=36	=36	=36	=36	=36	=36	=36	=36	=36	=36
8An\L	6_ 5_	16cc\LL	.	16ee-\LL	.	8A-\	-mul-	8cc\	-mul-	.	.	8f\L	8f\L	16ee-\LL	.
.	.	16cc\	.	16ee-\	.	.	.	.	.	.	.	.	.	16ee-\	.
8A\	.	16a-\	.	16cc\	.	8A-\	-tus	8cc\	-tus	.	.	16f\L	16f\L	16cc\	.
.	.	16cc\JJ	.	16cc\JJ	.	.	.	.	.	.	.	16f\JJ	16f\JJ	16cc\JJ	.
!	!	!	!	!	!	!	!	!	!	!	!	!	!LO:LB:g=original	!LO:LB:g=original	!
8A\	.	16ee-\LL	.	16aa-\LL	.	8A-\	fie-	8cc\	fi-	.	.	8f\L	8f\L	16aa-\LL	.
.	x	16cc\	.	16ee-\	.	.	.	.	.	.	.	.	.	16ee-\	.
8A\J	.	16a-\	.	16cc\	.	8A-\	.	8cc\	.	.	.	8f\J	8f\J	16cc\	.
.	.	16cc\JJ	.	16aa-\JJ	.	.	.	.	.	.	.	.	.	16aa-\JJ	.
!LO:TX:a:t=P:problem=mixed beam	!	!	!	!	!	!	!	!	!	!	!	!	!	!	!
8B-\L	.	16dd\LL	.	16bb-\LL	.	8B-\	-ret	8dd\	-ret	.	.	8f\L	8f\L	16bb-\LL	.
.	.	16dd\	.	16bb-\	.	.	.	.	.	.	.	.	.	16bb-\	.
8E-/	6 5	16ee-\	.	16ccc\	.	8E-/	in	16ee-\LL	in	.	.	16f\L	16f\L	16ccc\	.
.	.	16dd\JJ	.	16bb-\JJ	.	.	.	16dd\JJ	.	.	.	16f\JJ	16f\JJ	16bb-\JJ	.
8F/	.	16cc\LL	.	16aan\LL	.	8F/	po-	8.cc\	po-	.	.	16f\LL	16f\LL	16aan\LL	.
.	.	16dd\	.	16bb-\	.	.	.	.	.	.	.	16f\	16f\	16bb-\	.
8FF/J	.	16b-\	.	16gg\	.	8FF/	-pu-	.	.	.	.	16f\	16f\	16gg\	.
.	.	16cc\JJ	.	16aa\JJ	.	.	.	16cc\	-pu-	.	.	16f\JJ	16f\JJ	16aa\JJ	.
!LO:LB:g=original	!	!	!	!	!	!LO:LB:g=original	!	!LO:LB:g=original	!	!	!	!	!	!	!
=37	=37	=37	=37	=37	=37	=37	=37	=37	=37	=37	=37	=37	=37	=37	=37
!LO:TX:a:t=Solo	!	!LO:TX:a:t=trilo	!	!LO:TX:a:t=P:problem=mixed beam	!	!	!	!	!	!	!	!	!	!LO:TX:a:t=P:problem=mixed beam	!
8BB-/L	.	8dd\L	.	8bb-\L	.	4BB-/	-lo	4dd\	-lo	.	.	8f\	8f\	8bb-\L	.
8BB-/	.	8b-\J	.	8a-/J	.	.	.	.	.	.	.	8r	8r	8b-/J	.
8BB-/	.	16d/LL	.	16f/LL	.	4r	.	4r	.	.	.	4r	4r	16ff\LL	.
.	.	16c/	.	16e-/	.	.	.	.	.	.	.	.	.	16ee-\	.
8BB-/J	.	16B-/	.	16d/	.	.	.	.	.	.	.	.	.	16dd\	.
.	.	16An/JJ	.	16c/JJ	.	.	.	.	.	.	.	.	.	16cc\JJ	.
!	!	!	!	!LO:TX:a:t=P:problem=mixed beam	!	!	!	!	!	!	!	!	!	!	!
4BB-/	.	8B-/L	.	8B-/L	.	2r	.	2r	.	.	.	2r	2r	8b-\L	.
.	.	16b-/L	.	16dd\L	.	.	.	.	.	.	.	.	.	16dd\L	.
.	.	16an/JJ	.	16cc\JJ	.	.	.	.	.	.	.	.	.	16cc\JJ	.
8r	.	8b-/L	.	8dd\L	.	.	.	.	.	.	.	.	.	8dd\L	.
8BB-/	.	16a/L	.	16cc\L	.	.	.	.	.	.	.	.	.	16cc\L	.
.	.	16g/JJ	.	16b-X\JJ	.	.	.	.	.	.	.	.	.	16b-X\JJ	.
!	!	!LO:LB:g=original	!	!LO:LB:g=original	!	!	!	!	!	!	!	!	!	!	!
=38	=38	=38	=38	=38	=38	=38	=38	=38	=38	=38	=38	=38	=38	=38	=38
!	!	!	!	!	!	!LO:TX:a:t=6	!	!LO:TX:a:t=3	!	!	!	!	!LO:TX:a:t=13	!LO:SIC:s:=:v:16a	!
8F\L	.	16f/LL	.	16an/LL	.	00r	.	0r	.	.	.	00r	00r	16a-/LL	.
.	.	16d/	.	16f/	.	.	.	.	.	.	.	.	.	16f/	.
8F\	.	16f/	.	16a/	.	.	.	.	.	.	.	.	.	16a-/	.
.	.	16d/JJ	.	16b-\JJ	.	.	.	.	.	.	.	.	.	16b-/JJ	.
8F\	.	16an/LL	.	16cc\LL	.	.	.	.	.	.	.	.	.	16cc\LL	.
.	.	16f/	.	16an/	.	.	.	.	.	.	.	.	.	16an\	.
8F\J	.	16a/	.	16b-\	.	.	.	.	.	.	.	.	.	16b-\	.
.	.	16b-/JJ	.	16cc\JJ	.	.	.	.	.	.	.	.	.	16cc\JJ	.
8F\L	.	8cc\L	.	8ee-\L	.	.	.	.	.	.	.	.	.	8ee-\L	.
16B-\L	.	8b-\J	.	8dd\J	.	.	.	.	.	.	.	.	.	8dd\J	.
16F\JJ	.	.	.	.	.	.	.	.	.	.	.	.	.	.	.
8D/L	.	8r	.	8r	.	.	.	.	.	.	.	.	.	8r	.
8BB-/J	.	16dd\LL	.	16ff\LL	.	.	.	.	.	.	.	.	.	16ff\LL	.
.	.	16cc\JJ	.	16ee-\JJ	.	.	.	.	.	.	.	.	.	16ee-\JJ	.
=39	=39	=39	=39	=39	=39	=39	=39	=39	=39	=39	=39	=39	=39	=39	=39
4BB-/	.	8dd\L	.	8ff\L	.	.	.	.	.	.	.	.	.	8ff\L	.
.	.	16cc\L	.	16ee-\L	.	.	.	.	.	.	.	.	.	16ee-\L	.
.	.	16bn\JJ	.	16dd\JJ	.	.	.	.	.	.	.	.	.	16dd\JJ	.
!	!	!LO:TX:a:t=P:problem=mixed beam	!	!	!	!	!	!	!	!	!	!	!	!LO:LB:g=original	!
8r	.	8a-\L	.	8cc\L	.	.	.	.	.	.	.	.	.	8cc\L	.
8F\	7	16cc\L	.	16ee-\L	.	.	.	.	.	.	.	.	.	16ee-\L	.
.	6	16b\JJ	.	16dd\JJ	.	.	.	.	.	.	.	.	.	16dd\JJ	.
4F\	.	8cc\L	.	8ee-\L	.	.	.	.	.	.	.	.	.	8ee-\L	.
.	.	16b\L	.	16dd\L	.	.	.	.	.	.	.	.	.	16dd\L	.
.	.	16a-\JJ	.	16cc\JJ	.	.	.	.	.	.	.	.	.	16cc\JJ	.
!	!	!	!	!LO:TX:a:t=P:problem=mixed beam	!	!	!	!	!	!	!	!	!	!LO:TX:a:t=P:problem=mixed beam	!
8r	.	8b/L	.	8dd\L	.	.	.	.	.	.	.	.	.	8dd\L	.
8BB-/	.	16d/L	.	16f/L	.	.	.	.	.	.	.	.	.	16f/L	.
.	.	16c/JJ	.	16e-/JJ	.	.	.	.	.	.	.	.	.	16e-/JJ	.
=40	=40	=40	=40	=40	=40	=40	=40	=40	=40	=40	=40	=40	=40	=40	=40
4BB-/	.	8d/L	.	8f/L	.	.	.	1r	.	.	.	.	.	8ff\L	.
.	.	16c/L	.	16e-/L	.	.	.	.	.	.	.	.	.	16ee-\L	.
.	.	16B-/JJ	.	16d/JJ	.	.	.	.	.	.	.	.	.	16dd\JJ	.
8r	.	8A-/L	.	8c/L	.	.	.	.	.	.	.	.	.	8cc\L	.
8FF/	.	16c/L	.	16e-/L	.	.	.	.	.	.	.	.	.	16ee-\L	.
.	.	16B-/JJ	.	16d/JJ	.	.	.	.	.	.	.	.	.	16dd\JJ	.
4FF/	7 5	8c/L	.	8e-/L	.	.	.	.	.	.	.	.	.	8ee-\L	.
.	.	16B-/L	.	16d/L	.	.	.	.	.	.	.	.	.	16dd\L	.
.	.	16A-/JJ	.	16c/JJ	.	.	.	.	.	.	.	.	.	16cc\JJ	.
!	!	!	!	!LO:TX:a:t=P:problem=mixed beam	!	!	!	!	!	!	!	!	!	!LO:TX:a:t=P:problem=mixed beam	!
8r	.	8B-/L	.	8d/L	.	.	.	.	.	.	.	.	.	8d/L	.
8B-\	-	8f/J	.	8dd\J	.	.	.	.	.	.	.	.	.	8dd\J	.
!	!	!LO:TX:b:t=Vertatur Citiſsimo	!	!	!	!	!	!	!	!	!	!	!	!	!
!LO:LB:g=original	!	!LO:PB:g=original	!	!LO:LB:g=original	!	!	!	!	!	!	!	!	!	!	!
=41	=41	=41	=41	=41	=41	=41	=41	=41	=41	=41	=41	=41	=41	=41	=41
!LO:TX:a:t=P:problem=mixed beam	!	!	!	!	!	!	!	!LO:TX:a:t=Solo	!	!	!	!	!	!	!
8E-\L	.	16g/LL	.	16ee-\LL	.	.	.	2r	.	.	.	.	.	16ee-\LL	.
.	.	16an/	.	16cc\	.	.	.	.	.	.	.	.	.	16cc\	.
8E-\	.	16b-/	.	16dd\	.	.	.	.	.	.	.	.	.	16dd\	.
.	.	16d/JJ	.	16b-\JJ	.	.	.	.	.	.	.	.	.	16b-\JJ	.
8F\	.	8c/L	.	16e-/LL	.	.	.	.	.	.	.	.	.	16e-/LL	.
.	.	.	.	16b-\J	.	.	.	.	.	.	.	.	.	16b-\J	.
8FF/J	.	8e-/J	.	8cc\J	.	.	.	.	.	.	.	.	.	8cc/J	.
.	.	8qqe-/	.	8qqcc/	.	.	.	.	.	.	.	.	.	8qqdd/	.
8BB-/L	.	4d/	.	4b-\	.	.	.	8r	.	.	.	.	.	4b-/	.
8BB-/	.	.	.	.	.	.	.	8ff\	Abi-	.	.	.	.	.	.
8BB-/	6	4r	.	4r	.	.	.	8b-\	.	.	.	.	.	4r	.
8AAn/J	.	.	.	.	.	.	.	8cc\	-it	.	.	.	.	.	.
=42	=42	=42	=42	=42	=42	=42	=42	=42	=42	=42	=42	=42	=42	=42	=42
!	!	!	!	!	!	!	!	!	!	!	!	!	!	!	!LO:DY:t=piano
8BB-/L	.	8b-/	p	8dd\	p	1r	.	8dd\	au-	.	.	00r	00r	8dd\	p
8FF/	.	4a-/	.	4cc\	.	.	.	4cc\	-tem	.	.	.	.	4cc\	.
8FF/	.	.	.	.	.	.	.	.	.	.	.	.	.	.	.
8FF/J	.	16cc/LL	.	(16ee-\LL	.	.	.	16ee-\LL	Ju-	.	.	.	.	16ee-\LL	.
.	.	16b-/JJ	.	16dd\JJ)	.	.	.	16dd\JJ	.	.	.	.	.	16dd\JJ	.
.	.	.	.	(8qqdd/	.	.	.	.	.	.	.	.	.	8qqdd\	.
4FF/	6 7	8a-/	.	4cc\)	.	.	.	8cc\	-das	.	.	.	.	8cc\	.
!	!	!	!	!	!	!	!	!	!	!	!	!	!	!LO:N:vis=8.	!
.	5 3	4r	.	.	.	.	.	8f/	ad	.	.	.	.	8f/	.
4r	.	.	.	4r	.	.	.	16f/	prin-	.	.	.	.	16f/LL	.
.	.	.	.	.	.	.	.	16g\	-ci-	.	.	.	.	16g/JJ	.
!	!	!	!	!	!	!	!	!	!	!	!	!	!	!LO:N:vis=8	!
.	.	8r	.	.	.	.	.	16an\LL	-pis	.	.	.	.	16an\LL	.
!	!	!	!	!	!	!	!	!	!	!	!	!	!	!LO:N:vis=8	!
.	.	.	.	.	.	.	.	16bn\JJ	.	.	.	.	.	16bn\JJ	.
!	!	!	!	!	!	!	!	!	!	!	!	!	!	!LO:LB:g=original	!
=43	=43	=43	=43	=43	=43	=43	=43	=43	=43	=43	=43	=43	=43	=43	=43
8r	n	8r	.	8r	.	1r	.	8cc\	Sa-	.	.	.	.	8ee-X\	.
8FF/L	7_ 5_	8A-/L	.	8e-/L 8c/	.	.	.	4e-X/	-cer-	.	.	.	.	8ee-\L	.
8FF/	.	8A-/	.	8e-/ 8c/	.	.	.	.	.	.	.	.	.	8ee-\J	.
8FF/J	x	8A-/J	.	8e-/J 8c/	.	.	.	4e-/	-do-	.	.	.	.	8d/	.
!LO:TX:a:t=P:problem=mixed beam	!	!	!	!	!	!	!	!	!	!	!	!	!	!	!
8BB-/L	.	8d/	.	8B-/	.	.	.	.	.	.	.	.	.	8ee-\L	.
!	!	!	!	!	!	!	!	!LO:LB:g=original	!	!	!	!	!	!	!
8G\	.	8r	.	8r	.	.	.	8d/	-tum	.	.	.	.	8dd\J	.
!	!	!	!	!	!	!	!	!LO:N:vis=8	!	!	!	!	!	!	!
8D/	.	4r	.	4r	.	.	.	16ee-\	et	.	.	.	.	8cc\L	.
!	!	!	!	!	!	!	!	!LO:N:vis=8	!	!	!	!	!	!	!
.	.	.	.	.	.	.	.	16dd\	a-	.	.	.	.	.	.
8E-\J	.	.	.	.	.	.	.	16cc\LL	-it	.	.	.	.	8b-\J	.
.	.	.	.	.	.	.	.	16b-\JJ	.	.	.	.	.	.	.
=44	=44	=44	=44	=44	=44	=44	=44	=44	=44	=44	=44	=44	=44	=44	=44
!LO:TX:a:t=P:problem=mixed beam	!	!	!	!	!	!LO:TX:a:t=Solo	!	!	!	!	!	!	!	!	!
8F\L	n	0r	.	0r	.	4r	.	16an\LL	il-	.	.	.	.	16an/LL	.
.	.	.	.	.	.	.	.	16b-\J	.	.	.	.	.	16b-\J	.
8F\	.	.	.	.	.	.	.	8cc\J	.	.	.	.	.	8cc\J	.
.	.	.	.	.	.	.	.	8qqcc/	.	.	.	.	.	8qqdd/	.
8BB-/	4	.	.	.	.	8r	.	4b-\	-lis	.	.	.	.	4cc\	.
8BB-/J	3	.	.	.	.	8BB-/	Quid	.	.	.	.	.	.	.	.
8BB-/L	.	.	.	.	.	8BB-/	vul-	2r	.	.	.	.	.	2r	.
8BB-/	.	.	.	.	.	8D\	-tis	.	.	.	.	.	.	.	.
8D/	6	.	.	.	.	8B-\	mi-	.	.	.	.	.	.	.	.
8D/J	.	.	.	.	.	8B-\	-hi	.	.	.	.	.	.	.	.
!LO:LB:g=original	!	!	!	!	!	!	!	!	!	!	!	!	!	!	!
=45	=45	=45	=45	=45	=45	=45	=45	=45	=45	=45	=45	=45	=45	=45	=45
!	!	!	!	!	!	!	!	!LO:TX:a:t=4	!	!	!	!	!	!LO:TX:a:t=1	!
8E-\L	.	.	.	.	.	4e-\	da-	00r	.	.	.	.	.	1r	.
8E-\	.	.	.	.	.	.	.	.	.	.	.	.	.	.	.
8E-\	.	.	.	.	.	8B-\	-re	.	.	.	.	.	.	.	.
8E-\J	.	.	.	.	.	8B-\	et	.	.	.	.	.	.	.	.
8E-\L	.	.	.	.	.	8c\	ego	.	.	.	.	.	.	.	.
8F\	.	.	.	.	.	8A-X\	.	.	.	.	.	.	.	.	.
8A-X\	.	.	.	.	.	8F\	E-	.	.	.	.	.	.	.	.
8G\J	.	.	.	.	.	8B-\	-um	.	.	.	.	.	.	.	.
!	!	!	!	!LO:TX:b:t=Vertatur	!	!	!	!	!	!	!	!	!	!	!
!	!	!LO:LB:g=original	!	!LO:PB:g=original	!	!	!	!	!	!	!	!	!	!	!
=46	=46	=46	=46	=46	=46	=46	=46	=46	=46	=46	=46	=46	=46	=46	=46
!LO:TX:a:t=P:problem=mixed beam	!	!	!	!	!	!	!	!	!	!	!	!	!	!	!
8c\L	6	2r	.	2r	.	(16A-\LL	vo-	.	.	.	.	00r	00r	2r	.
.	.	.	.	.	.	16F\JJ)	.	.	.	.	.	.	.	.	.
8A-\	6	.	.	.	.	(16A-\LL	-bis	.	.	.	.	.	.	.	.
.	.	.	.	.	.	16c\JJ)	.	.	.	.	.	.	.	.	.
!	!	!	!	!	!	!LO:TX:a:t=P:problem=mixed beam	!	!	!	!	!	!	!	!	!
8B-\	4	.	.	.	.	8B-\L	tra-	.	.	.	.	.	.	.	.
8BB-/J	.	.	.	.	.	8BB-/J	.	.	.	.	.	.	.	.	.
8E-\L	.	8r	.	8r	.	4E-\	-dam	.	.	.	.	.	.	8r	.
8E-\	.	8b-/	.	8gg\	f	.	.	.	.	.	.	.	.	8gg\	.
8E-\	.	16a-X/LL	.	16ff\LL	.	4r	.	.	.	.	.	.	.	16ff\LL	.
.	.	16g/	.	16ee-\	.	.	.	.	.	.	.	.	.	16ee-\	.
8E-\J	.	16f/	.	16dd\	.	.	.	.	.	.	.	.	.	16dd\	.
.	.	16e-/JJ	.	16cc\JJ	.	.	.	.	.	.	.	.	.	16cc\JJ	.
!	!	!	!	!	!	!LO:LB:g=original	!	!	!	!	!	!	!	!	!
=47	=47	=47	=47	=47	=47	=47	=47	=47	=47	=47	=47	=47	=47	=47	=47
!	!	!LO:TX:a:t=P:problem=mixed beam	!	!	!	!LO:TX:a:t=4	!	!	!	!	!	!	!	!	!
4BB-/	5 7	16d/LL	.	16b-X\LL	.	00r	.	.	.	.	.	.	.	16b-X\LL	.
.	.	16dd\	.	16gg\	.	.	.	.	.	.	.	.	.	16gg\	.
.	6 4	16b-\	.	16b-\	.	.	.	.	.	.	.	.	.	16b-\	.
.	.	16ee-\JJ	.	16gg\JJ	.	.	.	.	.	.	.	.	.	16gg\JJ	.
8r	.	16dd\LL	.	16ff\LL	.	.	.	.	.	.	.	.	.	16ff\LL	.
.	.	16cc\	.	16ee-\	.	.	.	.	.	.	.	.	.	16ee-\	.
!LO:N:vis=4	!	!	!	!	!	!	!	!	!	!	!	!	!	!	!
8BB-/	6 4	16dd\	.	16ff\	.	.	.	.	.	.	.	.	.	16ff\	.
.	.	16ee-\JJ	.	16gg\JJ	.	.	.	.	.	.	.	.	.	16gg\JJ	.
8BB-\L	.	(16ff\LL	.	16aa-\LL	.	.	.	.	.	.	.	.	.	16aa-\LL	.
.	.	16dd\JJ)	.	16ff\JJ	.	.	.	.	.	.	.	.	.	16ff\JJ	.
8E-\	6 4	4ee-\	.	4gg\	.	.	.	.	.	.	.	.	.	4gg\	.
8E-\	5 7	.	.	.	.	.	.	.	.	.	.	.	.	.	.
8E-\J	.	8g/	.	8b-\	.	.	.	.	.	.	.	.	.	8b-/	.
=48	=48	=48	=48	=48	=48	=48	=48	=48	=48	=48	=48	=48	=48	=48	=48
8D\L	.	16a-/LL	.	16cc/LL	.	.	.	.	.	.	.	.	.	16cc\LL	.
.	-7 5	16f/	.	16a-/	.	.	.	.	.	.	.	.	.	16a-/	.
8D\	.	16a-/	.	16cc/	.	.	.	.	.	.	.	.	.	16cc\	.
.	.	16f/JJ	.	16a-/JJ	.	.	.	.	.	.	.	.	.	16a-/JJ	.
8D\	.	16d/LL	.	16f/LL	.	.	.	.	.	.	.	.	.	16f/LL	.
.	.	16f/	.	16a-/	.	.	.	.	.	.	.	.	.	16a-/	.
8D\J	.	16d/	.	16f/	.	.	.	.	.	.	.	.	.	16f/	.
.	.	16B-/JJ	.	16d/JJ	.	.	.	.	.	.	.	.	.	16d/JJ	.
!	!	!LO:TX:a:t=P:problem=mixed beam	!	!LO:TX:a:t=P:problem=mixed beam	!	!	!	!	!	!	!	!	!	!LO:LB:g=original	!
4BB-/	-7	8f/L	.	8B-/L	.	.	.	.	.	.	.	.	.	8b-\L	.
.	.	8ff\	.	8aa-\	.	.	.	.	.	.	.	.	.	8aa-\	.
4r	.	8ee-\	.	8gg\	.	.	.	.	.	.	.	.	.	8gg\	.
.	.	8dd\J	.	8ff/J	.	.	.	.	.	.	.	.	.	8ff\J	.
!LO:LB:g=original	!	!	!	!	!	!	!	!	!	!	!	!	!	!	!
=49	=49	=49	=49	=49	=49	=49	=49	=49	=49	=49	=49	=49	=49	=49	=49
!LO:TX:a:t=P:problem=mixed beam	!	!LO:TX:a:t=P:problem=mixed beam	!	!	!	!	!	!	!	!	!	!	!	!	!
8E-\L	.	8ee-\L	.	8gg\L	.	.	.	2r	.	.	.	.	.	8gg\L	.
8c\	.	8g/	.	8ee-\	.	.	.	.	.	.	.	.	.	8ee-\	.
8B-\	.	8f/	.	8dd\	.	.	.	.	.	.	.	.	.	8dd\	.
.	.	.	.	16qqdd/LL	.	.	.	.	.	.	.	.	.	.	.
.	.	.	.	16qqee-/JJ	.	.	.	.	.	.	.	.	.	.	.
8BB-/J	.	8a-/J	.	8ff\J	.	.	.	.	.	.	.	.	.	8ff\J	.
!	!	!	!	!LO:LB:g=original	!	!	!	!	!	!	!	!	!	!	!
.	.	.	.	8qqff/	.	.	.	.	.	.	.	.	.	8qqff\	.
!	!	!LO:LB:g=original	!	!	!	!	!	!	!	!	!	!	!	!	!
8E-\L	.	8g/	.	8ee-\	.	.	.	8r	.	.	.	.	.	4ee-\	.
8E-\	.	8r	.	8r	.	.	.	8b-\	at	.	.	.	.	.	.
8F\	6	4r	.	4r	.	.	.	8d/	il-	.	.	.	.	8r	.
8G\J	6	.	.	.	.	.	.	8e-/	-li	.	.	.	.	8b-/	.
=50	=50	=50	=50	=50	=50	=50	=50	=50	=50	=50	=50	=50	=50	=50	=50
!	!	!LO:TX:a:t=1.	!	!LO:TX:a:t=1	!	!	!	!	!	!	!	!	!	!	!
8A-X\L	.	1r	.	1r	.	.	.	4cc\	Con-	.	.	1r	1r	4cc\	.
8G\	.	.	.	.	.	.	.	.	.	.	.	.	.	.	.
8F\	.	.	.	.	.	.	.	(16b-\LL	-sti-	.	.	.	.	16b-\LL	.
.	.	.	.	.	.	.	.	16a-X\JJ)	.	.	.	.	.	16a-X\JJ	.
8E-\J	.	.	.	.	.	.	.	(16g\LL	-tu-	.	.	.	.	16gg\LL	.
.	.	.	.	.	.	.	.	16f/JJ)	.	.	.	.	.	16ff\	.
8E-/L	.	.	.	.	.	.	.	8e-/	-e-	.	.	.	.	16ee-\JJ	.
!	!	!	!	!	!	!	!	!	!	!	!	!	!	!LO:SIC:o:s:=:v:błąd rytmiczny, brakuje wartości jednej 16	!
.	.	.	.	.	.	.	.	.	.	.	.	.	.	16ryy	.
8E-/	-5	.	.	.	.	.	.	16f/LL	-runt	.	.	.	.	16ee-\LL	.
.	.	.	.	.	.	.	.	16g\JJ	.	.	.	.	.	16ff\JJ	.
8AA-/	.	.	.	.	.	.	.	(8a-/L	e-	.	.	.	.	8aa-\L	.
8AA-/J	.	.	.	.	.	.	.	8g/J)	.	.	.	.	.	8gg\J	.
!	!	!	!	!	!	!	!	!LO:LB:g=original	!	!	!	!	!	!	!
=51	=51	=51	=51	=51	=51	=51	=51	=51	=51	=51	=51	=51	=51	=51	=51
!LO:TX:a:t=P:problem=mixed beam	!	!	!	!	!	!	!	!	!	!	!	!	!	!LO:TX:a:t=P:problem=mixed beam	!
8BB-/L	.	8r	f	8r	.	8r	.	8f/	-ium	.	.	8r	8r	8a-/L	.
8B-\	.	8dd\L	.	8ff\L	.	8B-\	tri-	8ff\	tri-	.	.	8B-\L	8f\L	8ff\	.
8c\	.	8ee-\	.	8gg\	.	8c\	-gin-	8gg\	.	.	.	8e-\	8g\	8gg\	.
!	!	!	!	!	!	!LO:TX:a:t=g	!	!	!	!	!	!	!	!	!
8G\J	6	8b-\J	.	8ee-\J	.	8B-\	-ta	8ee-\	-ginta	.	.	8e-\J	8g\J	8ee-\J	.
!LO:TX:a:t=P:problem=mixed beam	!	!	!	!	!	!	!	!	!	!	!	!	!	!	!
8A-\L	6	8f/L	.	8dd\L	.	4A-\	ar-	8dd\L	ar-	.	.	8f\L	16a-\LL	8dd\L	.
.	.	.	.	.	.	.	.	.	.	.	.	.	16g\J	.	.
8A-\	5	16g/L	.	16ee-\L	.	.	.	16ee-\L	.	.	.	16e-\L	8a-\J	16ee-\L	.
.	.	16a-/JJ	.	16ff\JJ	.	.	.	16ff\JJ	.	.	.	16f\JJ	.	16ff\JJ	.
8B-\	6	16b-/LL	.	16gg\LL	.	8.B-\	-gen-	8.ff\	-gen-	.	.	8B-/L	8f\L	16gg\LL	.
.	.	16g/	.	16ee-\	.	.	.	.	.	.	.	.	.	16ee-\	.
8BB-/J	.	16a-/	.	16ff\	.	.	.	.	.	.	.	8B-/J	8f\J	16ff\	.
.	.	16f/JJ	.	16dd\JJ	.	16BB-/	-te-	16ff\	-te-	.	.	.	.	16dd\JJ	.
=52	=52	=52	=52	=52	=52	=52	=52	=52	=52	=52	=52	=52	=52	=52	=52
!	!	!	!	!LO:TX:a:t=P:problem=mixed beam	!	!	!	!	!	!	!	!	!	!LO:TX:a:t=P:problem=mixed beam	!
8E-\	.	8g/L	p	8ee-\L	p	8E-\	-os	8ee-\	-os	.	.	8e-\	8g\	8ee-\L	.
8r	.	8e-/	.	8e-/	.	8r	.	16e-/	de-	.	.	8r	8r	8e-/	.
.	.	.	.	.	.	.	.	16e-/	.	.	.	.	.	.	.
4r	.	8e-/	.	8g/	.	4r	.	8g\	ergo	.	.	4r	4r	8g/	.
.	.	8e-/J	.	8e-/J	.	.	.	8b-X\	.	.	.	.	.	8e-/J	.
2r	.	8d/L	.	8f/L	.	2r	.	8a-\	sig-	.	.	2r	2r	8f/L	.
.	.	16e-/L	.	16g/L	.	.	.	16g\LL	-nu-	.	.	.	.	16g/L	.
.	.	16f/JJ	.	16a-/JJ	.	.	.	16a-\JJ	-i	.	.	.	.	16a-/JJ	.
!	!	!	!	!LO:TX:a:t=P:problem=mixed beam	!	!	!	!LO:TX:a:t=P:problem=mixed beam	!	!	!	!	!	!	!
.	.	8g/L	.	8b-\L	.	.	.	8b-\L	di-	.	.	.	.	8b-\L	.
.	.	8f/J	.	8B-/J	.	.	.	8dJ/	.	.	.	.	.	8bb-\J	.
!	!	!	!	!	!	!	!	!	!	!	!	!	!	!LO:LB:g=original	!
=53	=53	=53	=53	=53	=53	=53	=53	=53	=53	=53	=53	=53	=53	=53	=53
!LO:TX:a:t=2	!	!	!	!	!	!	!	!	!	!	!	!	!	!	!
0r	.	4e-/	.	4e-/	.	8r	.	8e-/	-cens	.	.	0r	0r	4ee-\	.
.	.	.	.	.	.	8E-\	quem-	4r	.	.	.	.	.	.	.
.	.	8r	.	8r	.	8G\	-cum-	.	.	.	.	.	.	8r	.
!	!	!	!	!	!LO:DY:t=piano	!	!	!	!	!	!	!	!	!	!
.	.	8e-/	.	8e-/	p	8B-\	-que	8r	.	.	.	.	.	8ee-\	.
.	.	8a-/L	p	8a-/L	.	8c\	os-	2r	.	.	.	.	.	8aa-\L	.
.	.	8a-/	.	8a-/	.	8c\	-cu-	.	.	.	.	.	.	8aa-\	.
.	.	8g/	.	8g/	.	8B-\	-la-	.	.	.	.	.	.	8gg\	.
.	.	8f/J	.	8f/J	.	8A-\	-tus	.	.	.	.	.	.	8ff\J	.
!	!	!LO:LB:g=original	!	!LO:LB:g=original	!	!LO:LB:g=original	!	!	!	!	!	!	!	!	!
=54	=54	=54	=54	=54	=54	=54	=54	=54	=54	=54	=54	=54	=54	=54	=54
!	!	!	!	!	!	!	!	!LO:TX:a:t=1.	!	!	!	!	!	!	!
.	.	4e-/	.	4e-/	.	16G\	fue-	1r	.	.	.	.	.	4ee-\	.
.	.	.	.	.	.	16F\	-ro	.	.	.	.	.	.	.	.
.	.	.	.	.	.	8E-\	ip-	.	.	.	.	.	.	.	.
.	.	4r	.	4r	.	16e-\	-se	.	.	.	.	.	.	4r	.
.	.	.	.	.	.	16e-\	est	.	.	.	.	.	.	.	.
.	.	.	.	.	.	16B-\	te-	.	.	.	.	.	.	.	.
.	.	.	.	.	.	16B-\	.	.	.	.	.	.	.	.	.
!	!	!	!	!LO:TX:a:t=P:problem=mixed beam	!	!	!	!	!	!	!	!	!	!	!
.	.	8cc\L	.	8cc\L	.	8c\	-ne-	.	.	.	.	.	.	8cc\L	.
.	.	8a-\J	.	8a-\	.	8A-\	-te	.	.	.	.	.	.	8a-/	.
!	!	!LO:TX:a:t=P:problem=mixed beam	!	!	!	!LO:TX:a:t=P:problem=mixed beam	!	!	!	!	!	!	!	!	!
.	.	8b-\L	.	8b-\	.	8B-\L	e-	.	.	.	.	.	.	8b-\	.
.	.	8B-/J	.	8d/J	.	8BB-/J	-um	.	.	.	.	.	.	8dd\J	.
!	!	!	!	!	!	!	!	!LO:LB:g=original	!	!	!	!	!	!	!
=55	=55	=55	=55	=55	=55	=55	=55	=55	=55	=55	=55	=55	=55	=55	=55
!	!	!LO:TX:a:t=P:problem=mixed beam	!	!LO:TX:a:t=P:problem=mixed beam	!	!	!	!	!	!	!	!	!	!LO:TX:a:t=P:problem=mixed beam	!
8r	.	8e-/L	.	8e-/L	f	8E-\	.	8r	.	.	.	8r	8r	8e-/L	.
!	!	!	!	!	!	!	!	!LO:TX:a:t=Tutti	!	!	!	!	!	!	!
8c\L	.	8cc\	.	8ee-\	.	8c\	Et	8ee-\	et	.	.	8G/L	8G/L	8ee-\	.
8Bn\	.	8bn\	.	8dd\	.	8Bn\	cum	8dd\	cum	.	.	8G/	8G/	8dd\	.
8c\J	.	8cc\J	.	8ee-\J	.	8c\	ve-	8ee-\	ve-	.	.	8G/J	8G/J	8ee-\J	.
!LO:LB:g=original	!	!	!	!	!	!	!	!	!	!	!	!	!LO:LB:g=original	!	!
!	!	!	!	!LO:TX:a:t=P:problem=mixed beam	!	!	!	!	!	!	!	!	!	!LO:TX:a:t=P:problem=mixed beam	!
8B\L	.	8g/L	.	8dd\L	.	(8B\L	-ni-	8dd\	-ni-	.	.	8G/L	8G/L	8dd\L	.
!	!	!	!	!	!	!LO:SIC:s:=:v:set	!	!	!	!	!	!	!	!	!
8G\	6	8d/	.	8g/	.	8E-\J)	-sed	8g\	-set	.	.	8G/	8G/	8g/	.
8E-\	.	8e-/	.	8cc\	.	8E-\	.	8cc\	agit	.	.	8G/	8G/	8cc\	.
8E-\J	.	8e-/J	.	8cc\J	.	8E-\	ad	8cc\	.	.	.	8G/J	8G/J	8cc\J	.
!	!	!	!	!	!	!LO:LB:g=original	!	!	!	!	!	!	!	!	!
=56	=56	=56	=56	=56	=56	=56	=56	=56	=56	=56	=56	=56	=56	=56	=56
!LO:TX:a:t=P:problem=mixed beam	!	!	!	!	!	!	!	!	!	!	!	!	!	!	!
8F\L	6	8a-/L	.	8dd\L	.	8F\	Je-	8dd\	agit	.	.	8G/L	8G/L	8dd\L	.
8F\	5	8a-/	.	8cc\J	.	8F\	-sum	8cc\	.	.	.	16G/L	16G/L	8cc\J	.
.	.	.	.	.	.	.	.	.	.	.	.	16G/JJ	16G/JJ	.	.
8G\	.	8d/	.	8g/L	.	16G\	ait	4bn\t	Illi-	.	.	16G/LL	16G/LL	8g/L	.
.	.	.	.	.	.	16G\	.	.	.	.	.	16G/	16G/	.	.
8GG/J	n	8d/J	.	8bn\J	.	8GG/	el-	.	.	.	.	16G/	16G/	8cc/J	.
.	.	.	.	.	.	.	.	.	.	.	.	16G/JJ	16G/JJ	.	.
.	.	.	.	.	.	.	.	(8qqb/	.	.	.	.	.	.	.
4C/	.	4e-/	.	4cc\	.	8C/	-li	4cc\)	-li	.	.	4G/	4G/	4cc\	.
.	.	.	.	.	.	16C/LL	a-	.	.	.	.	.	.	.	.
.	.	.	.	.	.	16D\JJ	.	.	.	.	.	.	.	.	.
8r	.	4r	.	4r	.	8E-/L	.	4r	.	.	.	4r	4r	4r	.
8C/	.	.	.	.	.	8F/J	.	.	.	.	.	.	.	.	.
!	!	!	!	!	!	!	!	!	!	!	!	!LO:LB:g=original	!	!	!
=57	=57	=57	=57	=57	=57	=57	=57	=57	=57	=57	=57	=57	=57	=57	=57
!	!	!LO:TX:a:t=1.	!	!LO:TX:a:t=1	!	!	!	!LO:TX:a:t=1.	!	!	!	!LO:TX:a:t=1.	!LO:TX:a:t=1.	!LO:TX:a:t=1	!
4C/	.	1r	.	1r	.	16G\LL	.	1r	.	.	.	1r	1r	1r	.
.	.	.	.	.	.	16C/	.	.	.	.	.	.	.	.	.
.	.	.	.	.	.	16E-\	.	.	.	.	.	.	.	.	.
.	.	.	.	.	.	16G\JJ	.	.	.	.	.	.	.	.	.
4r	.	.	.	.	.	16c\LL	.	.	.	.	.	.	.	.	.
.	.	.	.	.	.	16Bn\	.	.	.	.	.	.	.	.	.
.	.	.	.	.	.	16c\	.	.	.	.	.	.	.	.	.
.	.	.	.	.	.	16B\JJ	.	.	.	.	.	.	.	.	.
8r	.	.	.	.	.	8c\	.	.	.	.	.	.	.	.	.
!LO:TX:a:t=P:problem=mixed beam	!	!	!	!	!	!	!	!	!	!	!	!	!	!	!
8F\L	6	.	.	.	.	8E-\	-ve	.	.	.	.	.	.	.	.
8G\	5	.	.	.	.	(8F\	Rabi	.	.	.	.	.	.	.	.
8GG/J	4	.	.	.	.	8G\)	.	.	.	.	.	.	.	.	.
!	!	!	!	!	!	!LO:PB:g=original	!	!	!	!	!	!	!	!	!
=58	=58	=58	=58	=58	=58	=58	=58	=58	=58	=58	=58	=58	=58	=58	=58
!LO:TX:a:t=P:problem=mixed beam	!	!	!	!	!	!LO:SIC:t:=:v:powtórzony tekst "bi"	!	!	!	!	!	!	!	!	!
8C/L	.	8r	.	8r	.	8C/	bi	8r	.	.	.	8r	8r	8r	.
8c\	.	8cc\	.	8ee-\	.	8c\	et	8ee-\	et	.	.	8G/L	8G/L	8ee-\	.
8A-X\	6 5	16dd-X\LL|	.	16ff\LL	.	8A-\	os-	(16ff\LL	Os-	.	.	8G/	8G/	16ff\LL	.
.	.	(16cc\	.	16ee-\	.	.	.	16ee-\JJ)	.	.	.	.	.	16ee-\	.
8F\J	.	16b-\	.	16dd\	.	8F\	-cu-	(16dd\LL	-cu-	.	.	8G/J	8G/J	16dd\	.
.	.	16cc\JJ)	.	16cc\JJ	.	.	.	16cc\JJ)	.	.	.	.	.	16cc\JJ	.
!	!	!	!	!	!	!	!	!LO:LB:g=original	!	!	!	!	!	!	!
!	!	!	!	!LO:TX:a:t=P:problem=mixed beam	!	!	!	!	!	!	!	!	!	!	!
8G\L	.	8bn/L	.	16bn\LL	.	8G\L	-la-	8bn\L	-la-	.	.	4G/	4G/	16bn/LL	.
.	.	.	.	16G/J	.	.	.	.	.	.	.	.	.	16g/J	.
8An\	.	8cc/	.	8cc\J	.	8An\J	.	8cc\J	.	.	.	.	.	8a-/J	.
!	!	!	!	!LO:LB:g=original	!	!	!	!	!	!	!	!	!	!	!
8Bn\	.	8g/	.	8dd\L	.	8Bn\	-tus	8dd\	-tus	.	.	8r	8r	8dd\L	.
8c\J	.	8g/J	.	8ee-\J	.	8c\	est	8ee-\	et	.	.	8G/	8G/	8ee-\J	.
!	!	!	!	!	!	!	!	!	!	!	!	!	!	!LO:TX:b:t=Verte cito	!
!	!	!LO:LB:g=original	!	!	!	!	!	!	!	!	!	!	!	!LO:PB:g=original	!
=59	=59	=59	=59	=59	=59	=59	=59	=59	=59	=59	=59	=59	=59	=59	=59
!	!	!	!	!LO:TX:a:t=P:problem=mixed beam	!	!	!	!	!	!	!	!	!	!LO:TX:a:t=P:problem=mixed beam	!
8Bn\L	.	8g/L	.	8dd\L	.	8Bn\	E-	8dd\	E-	.	.	4G/	4G/	8dd/L	.
8A-\J	6	8bn\	.	8gg\	.	8G\	-um	8g\	-um	.	.	.	.	8gg\	.
8E-\L	6	8g/	.	8g/	.	8E-\	a-	8cc\	.	.	.	8r	8r	8g/	.
8E-\J	6	8g/J	.	8cc/J	.	8E-\	-it	8cc\	dixit	.	.	8G/	8G/	8cc/J	.
!LO:TX:a:t=P:problem=mixed beam	!	!	!	!	!	!	!	!	!	!	!	!	!	!	!
8F\L	6	8a-/L	.	8dd\L	.	8F\	il-	8dd\	ei	.	.	8G/L	8G/L	8dd\L	.
8F\	5_	8a-/	.	8cc\	.	8F\	-li	8cc\	.	.	.	16G/L	16G/L	8cc\	.
.	.	.	.	.	.	.	.	.	.	.	.	16G/JJ	16G/JJ	.	.
!	!	!	!	!	!	!LO:TX:a:t=P:problem=mixed beam	!	!	!	!	!	!	!	!	!
8G\	.	8g/	.	8bn\	.	8G\L	Je-	4bn\t	Je-	.	.	8G/L	8G/L	8bn\	.
8GG/J	n	8d/J	.	8g\J	.	8GG/J	-sus	.	.	.	.	8G/J	8G/J	8g/J	.
!LO:PB:g=original	!	!	!	!	!	!	!	!	!	!	!	!	!	!	!
=60	=60	=60	=60	=60	=60	=60	=60	=60	=60	=60	=60	=60	=60	=60	=60
!LO:TX:a:t=Solo	!	!	!	!	!	!	!	!	!	!	!	!	!	!	!
8C/L	.	4e-/	.	4cc\	.	8C/	.	8cc\	-sus	.	.	4G/	4G/	4cc\	.
8C/	.	.	.	.	.	8c\	o	2r	.	.	.	.	.	.	.
8C/	.	4r	.	4r	.	16G\LL	Ju-	.	.	.	.	2r	2r	4r	.
.	.	.	.	.	.	16F\	.	.	.	.	.	.	.	.	.
8C/J	.	.	.	.	.	16E-\	.	.	.	.	.	.	.	.	.
.	.	.	.	.	.	16D\JJ	.	.	.	.	.	.	.	.	.
!	!	!	!	!	!	!LO:LB:g=original	!	!	!	!	!	!	!	!	!
!	!	!LO:TX:a:t=P:problem=mixed beam	!	!LO:TX:a:t=P:problem=mixed beam	!	!	!	!	!	!	!	!	!	!	!
4C/	.	8c/L	.	8c/L	.	4C/	-da	.	.	.	.	.	.	8cc\L	.
.	.	16cc\L	.	16ee-\L	.	.	.	4r	.	.	.	.	.	16ee-\L	.
.	.	16bn\JJ	.	16dd\JJ	.	.	.	.	.	.	.	.	.	16dd\JJ	.
8r	.	8cc\L	.	8ee-\L	p	4r	.	.	.	.	.	4r	4r	8ee-\L	.
8C/	.	16bn\L	.	16dd\L	.	.	.	8r	.	.	.	.	.	16dd\L	.
.	.	16a-\JJ	.	16cc\JJ	.	.	.	.	.	.	.	.	.	16cc\JJ	.
=61	=61	=61	=61	=61	=61	=61	=61	=61	=61	=61	=61	=61	=61	=61	=61
!	!	!	!	!	!	!	!	!LO:TX:a:t=2	!	!	!	!LO:TX:a:t=2	!LO:TX:a:t=2	!	!
8GG/L	.	4bn\	.	4dd\	.	4G\	Os-	0r	.	.	.	0r	0r	4dd\	.
8GG/	.	.	.	.	.	.	.	.	.	.	.	.	.	.	.
8GG/	.	4r	.	4r	.	8D\	-cu-	.	.	.	.	.	.	4r	.
8GG/J	.	.	.	.	.	8C/	-lo	.	.	.	.	.	.	.	.
!	!	!LO:TX:a:t=P:problem=mixed beam	!	!LO:TX:a:t=P:problem=mixed beam	!	!	!	!	!	!	!	!	!	!LO:TX:a:t=P:problem=mixed beam	!
4GG/	.	8G/L	.	8G/L	.	8BBn/	tra-	.	.	.	.	.	.	8g/L	.
.	.	16dd\L	.	16ff\L	.	8GG/	-dis	.	.	.	.	.	.	16ff\L	.
.	.	16cc\JJ	.	16ee-\JJ	.	.	.	.	.	.	.	.	.	16ee-\JJ	.
8r	.	8dd\L	.	8ff\L	.	4r	.	.	.	.	.	.	.	8ff\L	.
8GG/	6 5	16cc\L	.	16ee-\L	.	.	.	.	.	.	.	.	.	16ee-\L	.
.	.	16b\JJ	.	16dd\JJ	.	.	.	.	.	.	.	.	.	16dd\JJ	.
=62	=62	=62	=62	=62	=62	=62	=62	=62	=62	=62	=62	=62	=62	=62	=62
!	!	!	!	!	!	!	!	!LO:TX:b:t=Vertatus citiſsime	!	!	!	!	!	!	!
8C/L	.	4cc\	.	4ee-\	.	8r	.	.	.	.	.	.	.	4ee-\	.
8E-\	.	.	.	.	.	8E-\	Fi-	.	.	.	.	.	.	.	.
8D\	.	4r	.	4r	.	8D\	-li-	.	.	.	.	.	.	4r	.
8C/J	.	.	.	.	.	8C\	-um	.	.	.	.	.	.	.	.
!LO:TX:a:t=P:problem=mixed beam	!	!LO:TX:a:t=P:problem=mixed beam	!	!LO:TX:a:t=P:problem=mixed beam	!	!	!	!	!	!	!	!	!	!	!
8G\L	.	8dd\L	.	8gg\L	.	8G\	ho-	.	.	.	.	.	.	8gg\L	.
8GG/	.	8d/	.	8bn\	.	8GG/	-mi-	.	.	.	.	.	.	8b-\	.
8C/	.	8e-/	.	8cc\	.	8C/	-nis	.	.	.	.	.	.	8cc\	.
8c\J	.	8c/J	.	8c/J	.	8r	.	.	.	.	.	.	.	8ccc\J	.
!	!	!LO:LB:g=original	!	!LO:LB:g=original	!	!	!	!LO:PB:g=original	!	!	!	!	!LO:LB:g=original	!	!
=63	=63	=63	=63	=63	=63	=63	=63	=63	=63	=63	=63	=63	=63	=63	=63
!	!	!	!	!	!	!LO:TX:a:t=Tutti	!	!	!	!	!	!	!	!	!
4E-\	-5	16e-/LL	.	16e-/LL	.	4E-\	Mi-	4ee-\	Mi-	.	.	4e-\	4g\	16ee-\LL	.
.	.	16e-/	.	16e-/	.	.	.	.	.	.	.	.	.	16ee-\	.
.	3	16e-/	.	16e-/	.	.	.	.	.	.	.	.	.	16ee-\	.
.	.	16e-/JJ	.	16e-/JJ	.	.	.	.	.	.	.	.	.	16ee-\JJ	.
!	!	!	!	!	!	!LO:LB:g=original	!	!	!	!	!	!	!	!	!
2r	.	16e-/LL	.	16e-/LL	.	(16E-\LL	-ni-	16e-/LL	-ni-	.	.	16e-\LL	16g\LL	16ee-\LL	.
.	.	16e-/	.	16e-/	.	16D\JJ)	.	16f/JJ	.	.	.	16B-\	16f\	16ee-\	.
.	.	16e-/	.	16e-/	.	(16E-\LL	-stri	16g/LL	stri	.	.	16e-\	16g\	16ee-\	.
.	.	16e-/JJ	.	16e-/JJ	.	16F\JJ)	.	16a-/JJ	.	.	.	16f\JJ	16a-\JJ	16ee-\JJ	.
.	.	16e-/LL	.	16e-/LL	.	8G\L	ve-	8b-X\L	ve-	.	.	8g\L	8b-\L	16ee-\LL	.
.	.	16e-/	.	16e-/	.	.	.	.	.	.	.	.	.	16ee-\	.
.	.	16e-/	.	16e-/	.	8F\J	.	8a-\J	.	.	.	8f\	8a-\	16ee-\	.
.	.	16e-/JJ	.	16e-/JJ	.	.	.	.	.	.	.	.	.	16ee-\JJ	.
!	!	!	!	!	!	!	!	!	!	!	!	!	!	!LO:LB:g=original	!
4r	.	16e-/LL	.	16e-/LL	.	8E-\	-ro	8g\	-ro	.	.	8e-\	8g\	16ee-\LL	.
.	.	16e-/	.	16e-/	.	.	.	.	.	.	.	.	.	16ee-\	.
!	!	!	!	!	!	!LO:TX:a:t=gis	!	!LO:TX:a:t=c	!	!	!	!	!	!	!
.	.	16e-/	.	16e-/	.	8A-\	du-	8cc\	du-	.	.	8a-\J	8cc\J	16ee-\	.
.	.	16e-/JJ	.	16e-/JJ	.	.	.	.	.	.	.	.	.	16ee-\JJ	.
=64	=64	=64	=64	=64	=64	=64	=64	=64	=64	=64	=64	=64	=64	=64	=64
2r	.	16e-/LL	.	16e-/LL	.	8G\	-xe-	8b-\	-xe-	.	.	8g\L	8b-\L	16ee-\LL	.
.	.	16e-/	.	16e-/	.	.	.	.	.	.	.	.	.	16ee-\	.
.	.	16e-/	.	16e-/	.	8A-\	-runt	8cc\	-run	.	.	8a-\	8cc\	16ee-\	.
.	.	16e-/JJ	.	16e-/JJ	.	.	.	.	.	.	.	.	.	16ee-\JJ	.
.	.	16e-/LL	.	16e-/LL	.	(8G\L	Je-	(8b-\L	Je-	.	.	8g\	8b-\	16ee-\LL	.
.	.	16e-/	.	16e-/	.	.	.	.	.	.	.	.	.	16ee-\	.
.	.	16e-/	.	16e-/	.	8F\J)	.	8a-\J)	.	.	.	8f\J	8a-\J	16ee-\	.
.	.	16e-/JJ	.	16e-/JJ	.	.	.	.	.	.	.	.	.	16ee-\JJ	.
!	!	!LO:TX:a:t=P:problem=mixed beam	!	!LO:TX:a:t=P:problem=mixed beam	!	!	!	!	!	!	!	!	!	!	!
4E-\	.	8e-/L	.	8e-/L	.	8E-\	-sum	8g\	-sum	.	.	8e-\L	8g\L	8ee-\L	.
.	.	8ee-\	.	8gg\	.	8G\	ad	8ee-\	ad	.	.	8e-\	8g\	8gg\	.
!	!	!	!	!	!LO:DY:t=f	!	!	!	!	!	!	!	!	!	!
4r	.	8dd\	.	8ff\	f	8F\	prin-	8dd\	Pri-	.	.	8f\	8a-\	8ff\	.
.	.	8b-\J	.	8ee-\J	.	16F\	-ci-	16dd\	-nci-	.	.	8e-\J	8g\J	8ee-\J	.
!	!	!	!	!	!	!LO:TX:a:t=g	!	!	!	!	!	!	!	!	!
.	.	.	.	.	.	16G\	-pes	16ee-\	-pes	.	.	.	.	.	.
!LO:LB:g=original	!	!	!	!	!	!	!	!	!	!	!	!LO:LB:g=original	!	!	!
=65	=65	=65	=65	=65	=65	=65	=65	=65	=65	=65	=65	=65	=65	=65	=65
!	!	!	!	!	!	!	!	!	!	!	!	!LO:TX:a:t=P:problem=mixed beam	!	!	!
8A-\L	6	8a-/L	.	8ff\L	.	8A-\	Sa-	8ff\	Sa-	.	.	8B-\L	8f\L	8ff\L	.
8G\	6	8g/	.	8ee-\	.	8G\	-cer-	8ee-\	-cerdo-	.	.	8e-\	8g\	8ee-\	.
8A-\	.	8a-/	.	8ff\	.	(8A-\L	-do-	8ff\L	.	.	.	8f\	8a-\	8ff\	.
8B-\J	.	8f/J	.	8dd\J	.	8B-\J)	.	8dd\J	.	.	.	8B-/J	8f\J	8dd\J	.
!	!	!	!	!	!	!LO:LB:g=original	!	!LO:LB:g=original	!	!	!	!	!	!	!
8E-\L	6	8g/	.	8ee-\	.	8E-\	-tum	8ee-\	-tum	.	.	8e-\	8g\	8ee-\	.
8E-\	6	4b-\	.	4gg\	.	8G\	et	8b-\	et	.	.	4g\	4b-\	4gg\	.
!LO:TX:a:t=g	!	!	!	!	!	!	!	!	!	!	!	!	!	!	!
8G\ 8E-\	6	.	.	.	.	8G\	ait-	8b-\	a-	.	.	.	.	.	.
8E-\J	6	16a-/LL	.	16ff\LL	.	(16F\LL	-it	(16a-\LL	-it	.	.	16f\LL	16a-\LL	16ff\LL	.
.	.	16g/JJ	.	16ee-\JJ	.	16E-\JJ)	.	16g\JJ)	.	.	.	16e-\JJ	16g\JJ	16ee-\JJ	.
!	!	!LO:LB:g=original	!	!	!	!	!	!	!	!	!	!	!	!	!
=66	=66	=66	=66	=66	=66	=66	=66	=66	=66	=66	=66	=66	=66	=66	=66
!LO:TX:a:t=P:problem=mixed beam	!	!LO:TX:a:t=P:problem=mixed beam	!	!	!	!	!	!	!	!	!	!	!	!	!
8B-\L	.	16f/LL	.	16dd\LL	.	8B-\	il-	8f/	il-	.	.	4B-/	4f\	16dd\LL	.
.	.	16ff\	.	16bb-\	.	.	.	.	.	.	.	.	.	16bb-\	.
8BB-/J	.	16dd\	.	16ff\	.	8BB-/	-lis	8f/	-li	.	.	.	.	16ff\	.
.	.	16b-\JJ	.	16dd\JJ	.	.	.	.	.	.	.	.	.	16dd\JJ	.
!	!	!	!	!LO:LB:g=original	!	!	!	!	!	!	!	!	!	!	!
8r	.	16f/LL	.	16b-\LL	.	8r	.	8r	.	.	.	8r	8r	16bb-\LL	.
.	.	16d/	.	16f/	.	.	.	.	.	.	.	.	.	16ff\	.
8BB-/	.	16f/	.	16d/	.	16E-\LL	ad-	8f/	ad-	.	.	8B-/	8f\	16dd\	.
.	.	16B-/JJ	.	16B-/JJ	.	16D\JJ	.	.	.	.	.	.	.	16b-\JJ	.
4E-\	.	16e-/LL	.	16e-/LL	.	(16E-\LL	-ju-	(16g\LL	-ju-	.	.	16e-/LL	(16g\LL	16ee-\LL	.
.	.	16e-/	.	16e-/	.	16D\JJ)	.	16f/JJ)	.	.	.	16B-/	16f\)	16ee-\	.
.	.	16e-/	.	16e-/	.	8E-\	-ro	(16g\LL	-ro	.	.	16E-/	(16g\	16ee-\	.
.	.	16e-/JJ	.	16e-/JJ	.	.	.	16f/JJ)	.	.	.	16B-/JJ	16f\JJ)	16ee-\JJ	.
4r	.	16e-/LL	.	16e-/LL	.	8G\	tem-	8g\	tem	.	.	8e-\L	8g\L	16ee-\LL	.
.	.	16e-/	.	16e-/	.	.	.	.	.	.	.	.	.	16ee-\	.
.	.	16e-/	.	16e-/	.	8G\	-er	8b-\	per	.	.	8g\J	8b-\J	16ee-\	.
.	.	16e-/JJ	.	16e-/JJ	.	.	.	.	.	.	.	.	.	16ee-\JJ	.
!	!	!	!	!	!	!	!	!	!	!	!	!	!LO:LB:g=original	!LO:LB:g=original	!
=67	=67	=67	=67	=67	=67	=67	=67	=67	=67	=67	=67	=67	=67	=67	=67
2r	.	16e-/LL	.	16e-/LL	.	8A-\	E-	8cc\	De-	.	.	8a-\L	8cc\L	16ee-\LL	.
.	.	16e-/	.	16e-/	.	.	.	.	.	.	.	.	.	16ee-\	.
.	.	16e-/	.	16e-/	.	8G\	-UM	8b-\	-um	.	.	8g\J	8b-\J	16ee-\	.
.	.	16e-/JJ	.	16e-/JJ	.	.	.	.	.	.	.	.	.	16ee-\JJ	.
.	.	16e-/LL	.	16e-/LL	.	8r	.	8r	.	.	.	8r	8r	16ee-\LL	.
.	.	16e-/	.	16e-/	.	.	.	.	.	.	.	.	.	16ee-\	.
.	.	16e-/	.	16e-/	.	8G\	per	8ee-\	per	.	.	8g\	8b-\	16ee-\	.
.	.	16e-/JJ	.	16e-/JJ	.	.	.	.	.	.	.	.	.	16ee-\JJ	.
4BB-/	.	16d/LL	.	16d/LL	.	8A-\	De-	8ff\	.	.	.	8f\L	8a-\L	16ee-\LL	.
.	.	16d/	.	16d/	.	.	.	.	.	.	.	.	.	16ee-\	.
.	.	16d/	.	16d/	.	8F\	-um	8a-\	Deum	.	.	8f\J	8a-\J	16ee-\	.
.	.	16d/JJ	.	16d/JJ	.	.	.	.	.	.	.	.	.	16ee-\JJ	.
!	!	!	!	!	!	!	!	!LO:TX:a:t=t	!	!	!	!	!LO:TX:a:t=t	!	!
4r	.	16d/LL	.	16d/LL	.	4F\	vi-	4a-\	vi-	.	.	4f\T	4a-\	16ee-\LL	.
.	.	16d/	.	16d/	.	.	.	.	.	.	.	.	.	16ee-\	.
.	.	16d/	.	(>16d/	.	.	.	.	.	.	.	.	.	16ee-\	.
.	.	16d/JJ	.	16d/JJ)	.	.	.	.	.	.	.	.	.	16ee-\JJ	.
!	!	!	!	!	!	!LO:LB:g=original	!	!LO:LB:g=original	!	!	!	!	!	!	!
=68	=68	=68	=68	=68	=68	=68	=68	=68	=68	=68	=68	=68	=68	=68	=68
!	!	!	!	!	!	!	!	!LO:SIC:o:s=:v: takt 68 jest pełen błędów tekstowych	!	!	!	!	!LO:TX:a:t=P:problem=mixed beam	!	!
0r	.	8e-/L	.	8e-/L	.	8E-\	-vum	8g\	-vum	.	.	8e-/L	8g\L	8e-/L	.
.	.	8d/	.	8f/	.	8BB-/	ut	8f/	ut	.	.	8B-/	8B-/	8f/	.
.	.	8e-/	.	8g/	.	8E-\	di-	8g\	dicat	.	.	8B-/	8B-/	8g/	.
!	!	!	!	!	!	!	!	!LO:SIC:o:s:=:v:niezrozumiały tekst	!	!	!	!	!	!	!
.	.	8f/J	.	8a-/J	.	8F\	-cas	8a-\	.	.	.	8B-/J	8B-/J	8a-/J	.
!	!	!	!	!	!	!	!	!	!	!	!	!LO:TX:a:t=P:problem=mixed beam	!LO:TX:a:t=P:problem=mixed beam	!	!
.	.	8g/L	.	8b-\L	.	4G\	no-	4b-\	no-	.	.	8e-\L	8e-\L	8b-\L	.
.	.	8e-/	.	8g/	.	.	.	.	.	.	.	8e-\	8E-/	8g/	.
.	.	8B-/	.	8e-/	.	8G\	-bis	8e-/	-bis	.	.	8E-/	8E-/	8e-/	.
.	.	8g/J	.	8b-\J	.	8G\	si	8b-\	si	.	.	8E-/J	8E-/J	8b-\J	.
!	!	!LO:LB:g=original	!	!	!	!	!	!	!	!	!	!	!	!	!
=69	=69	=69	=69	=69	=69	=69	=69	=69	=69	=69	=69	=69	=69	=69	=69
!	!	!	!	!LO:TX:a:t=P:problem=mixed beam	!	!	!	!	!	!	!	!	!	!LO:TX:a:t=P:problem=mixed beam	!
.	.	8a-/L	.	8cc\L	.	8A-\	tu	8cc\	tu	.	.	8E-/L	8E-/L	8cc\L	.
.	.	8g/J	.	8b-\	.	8G\	es	8b-\	es	.	.	8E-/J	8E-/J	8b-\	.
.	.	4r	.	8dd\	.	4r	.	8ee-\	Chris-	.	.	4r	4r	8dd\	.
.	.	.	.	8e-/J	.	.	.	8e-/	-tus	.	.	.	.	8e-/J	.
!	!	!	!	!LO:LB:g=original	!	!	!	!	!	!	!LO:LB:g=original	!	!	!	!
!	!	!	!	!	!	!	!	!	!	!	!	!	!LO:TX:a:t=t	!	!
.	.	4.f/	.	4.a-/	.	4.F\T	Fi-	4.a-\	Fi-	.	.	4.fT\	4.a-\	4.a-/	.
.	.	(16e-/LL	.	16g/LL	.	16E-\	-li-	16g/	-li-	.	.	16e-\L	16g\LL	16g/LL	.
.	.	16d/JJ)	.	16f/JJ	.	16D\	-us	16f/	-us	.	.	16B-\J	16f\JJ	16f/JJ	.
=70	=70	=70	=70	=70	=70	=70	=70	=70	=70	=70	=70	=70	=70	=70	=70
!	!	!	!	!LO:TX:a:t=P:problem=mixed beam	!	!	!	!	!	!	!	!	!	!LO:TX:a:t=P:problem=mixed beam	!
8E-\L	.	16e-/LL	ff	16g/LL	.	(16E-\LL	de-	8g\	De-	.	.	8e-\L	(8g\L	16g/LL	.
.	.	16b-\	.	16gg\	.	16F\JJ)	.	.	.	.	.	.	.	16gg\	.
16G\L	6	16a-/	.	16ff\	.	(16G\LL	.	16a-\LL	.	.	.	16f\L	16a-\L	16ff\	.
16A-\JJ	6	16g/JJ	.	16ee-\JJ	.	16A-\JJ)	.	16g\JJ	-i	.	.	16e-\JJ	16g\JJ)	16ee-\JJ	.
!LO:TX:a:t=P:problem=mixed beam	!	!	!	!	!	!LO:TX:a:t=P:problem=mixed beam	!	!	!	!	!	!LO:TX:a:t=t	!	!	!
8B-\L	.	8f/L	.	8dd\L	.	8B-\L	-Vi-	4f/	vi-	.	.	4B-/	4f\	8dd\L	.
8BB-/J	.	8f/J	.	8dd\J	.	8BB-/J	.	.	.	.	.	.	.	8dd\J	.
!LO:LB:g=original	!	!	!	!	!	!	!	!	!	!	!	!	!LO:TX:a:t=P:problem=mixed beam	!	!
8E-\L	.	8g/	.	8ee-\	.	8E-\	-vi	8g/	-vi	.	.	8e-/L	8g\L	8ee-\	.
8Bn\	.	4bn/	.	4dd\	.	4Bn\	ait	4dd\	.	.	.	16G/L	16G/L	4ee-\	.
.	.	.	.	.	.	.	.	.	.	.	.	16G/JJ	16G/JJ	.	.
8B\	.	.	.	.	.	.	.	.	.	.	.	8G/L	8G/L	.	.
8c\J	.	8dd\	.	8ee-\	.	8c\	.	8ee-\	ait	.	.	8G/J	8G/J	8ee-\	.
!	!	!	!	!	!	!LO:LB:g=original	!	!LO:LB:g=original	!	!	!	!	!	!LO:LB:g=original	!
=71	=71	=71	=71	=71	=71	=71	=71	=71	=71	=71	=71	=71	=71	=71	=71
!	!	!	!	!	!	!	!	!	!	!	!	!	!	!LO:SIC:o:s:=:v:brak znakóœ na początku pięciolinii	!
8A-\L	3	8a-X/L	.	8cc\L	.	8A-\	illi	8cc\	il-	.	.	8G/L	8G/L	8dd\L	.
8A-\	.	8a-/	.	8cc\	.	8A-\	.	8cc\	-li	.	.	8G/	8G/	8cc\	.
8F\	6	8f/	.	8dd\	.	4F\	Je-	8dd\L	Je-	.	.	8G/	8G/	8dd\	.
8F\J	5	8f/J	.	8cc\J	.	.	.	8cc\J	.	.	.	8G/J	8G/J	8b-\J	.
*2\right	*	*	*	*	*	*	*	*2\right	*	*	*	*	*	*2\right	*
2G;\	.	2g/;	.	2bn\	.	2G\;	-sus	2bn\;	-sus	.	.	2G/;	2G/;	2bn\	.
!	!	!	!	!	!	!	!	!	!	!	!	!	!LO:LB:g=original	!	!
=72	=72	=72	=72	=72	=72	=72	=72	=72	=72	=72	=72	=72	=72	=72	=72
!LO:TX:a:t=Lentiſsima	!	!	!	!LO:TX:a:t=Lentiſsima	!	!	!	!LO:TX:a:t=2	!	!	!	!LO:TX:a:t=2	!LO:TX:a:t=2	!LO:TX:a:t=Lentiſsima	!
8C/L	.	8e-/L	.	8g/L	.	2c\	tu	0r	.	.	.	0r	0r	8g/L	.
8C/	.	8e-/	.	8g/	.	.	.	.	.	.	.	.	.	8g/	.
8C/	.	8e-/	.	8g/	.	.	.	.	.	.	.	.	.	8g/	.
8C/J	.	8e-/J	.	8g/J	.	.	.	.	.	.	.	.	.	8g/J	.
8C/L	.	8f/L	.	8a-/L	.	2c\	di-	.	.	.	.	.	.	8a-/L	.
8C/	.	8f/	.	8a-/	.	.	.	.	.	.	.	.	.	8a-/	.
8C/	.	8f/	.	8a-/	.	.	.	.	.	.	.	.	.	8a-/	.
8C/J	.	8f/J	.	8a-/J	.	.	.	.	.	.	.	.	.	8a-/J	.
!	!	!LO:LB:g=original	!	!	!	!	!	!	!	!	!	!	!	!	!
=73	=73	=73	=73	=73	=73	=73	=73	=73	=73	=73	=73	=73	=73	=73	=73
!	!	!	!	!LO:SIC:o:s:=:v: napis chyba" Prawe"	!	!	!	!	!	!	!	!	!	!	!
8GG/L	.	8d/L	.	8a-/L	.	2Bn\	-xi-	.	.	.	.	.	.	8a-/L	.
8GG/	.	8d/	.	8a-/	.	.	.	.	.	.	.	.	.	8a-/	.
8GG/	.	8Bn/	.	8d/	.	.	.	.	.	.	.	.	.	8d/	.
8GG/J	.	8B/J	.	8d/J	.	.	.	.	.	.	.	.	.	8d/J	.
!	!	!	!	!LO:LB:g=original	!	!	!	!	!	!	!	!	!	!	!
8C/L	.	8c/L	.	8e-/L	.	2c\	-sti	.	.	.	.	.	.	8e-/L	.
8C/	.	8c/	.	8e-/	.	.	.	.	.	.	.	.	.	8e-/	.
8C/	.	8G/	.	8e-/	.	.	.	.	.	.	.	.	.	8e-/	.
8C/J	.	8G/J	.	8e-/J	.	.	.	.	.	.	.	.	.	8e-/J	.
=74	=74	=74	=74	=74	=74	=74	=74	=74	=74	=74	=74	=74	=74	=74	=74
!	!	!LO:TX:a:t=f	!	!	!	!	!	!	!	!	!	!	!	!	!
4.F\	7 5	8a-/L 8f/	.	8dd\L	.	4.F\	dixi-	4dd\	di-	.	.	8G/L	8G/L	8dd\L	.
!	!	!LO:TX:a:t=f	!	!	!	!	!	!	!	!	!	!	!	!	!
.	.	8a-/ 8f/	.	8dd\	.	.	.	.	.	.	.	16G/L	16G/L	8dd\	.
.	.	.	.	.	.	.	.	.	.	.	.	16G/JJ	16G/JJ	.	.
.	.	8f/	.	8dd\	.	.	.	8dd\L	-xi-	.	.	8G/L	8G/L	8dd\	.
8F#X\	4 5	8e-/J	.	8dd\J	.	8F#X\	.	8cc\J	.	.	.	8G/J	8G/J	8dd\J	.
!	!	!	!	!	!	!	!	!	!	!	!	!	!	!LO:SIC:s:=:v:2b	!
*	*	*	*	*2\right	*	*	*	*	*	*	*	*	*	*	*
2G\	x 3	2d/;	.	2bn\;	.	2G\;	-sti	2bn\;	-sti	.	.	2G/;	2G/;	2b-/	.
==;;	==	==:||:	==	==;	==	==;	==	==	==	==	==	==	==;	==	==
*-	*-	*-	*-	*-	*-	*-	*-	*-	*-	*-	*-	*-	*-	*-	*-
!!!system-decoration: [(s1)][(s2,s3)][(s4,s5)][(s6,s7)][(s8)]
!!!RDF**kern: > = above
!!!RDF**kern: < = below
!!!RDF**dynam: p = pia
!!!RDF**dynam: f = for
!!!EED: Leszek Kubiak
!!!EST: 2020-12-04
!!!ENC: Andrzej Gręziak
!!!END: 2020-04-27
!!!RDF**kern: | = vertical stroke
